; generated by Slic3r Prusa Edition 1.39.1-beta1-prusa3d-win64 on 2018-05-09 at 19:42:24

; 

; external perimeters extrusion width = 0.45mm
; perimeters extrusion width = 0.45mm
; infill extrusion width = 0.45mm
; solid infill extrusion width = 0.45mm
; top infill extrusion width = 0.40mm
; support material extrusion width = 0.35mm
; first layer extrusion width = 0.42mm

M107
M115 U3.1.0 ; tell printer latest fw version
M201 X9000 Y9000 Z500 E10000 ; sets maximum accelerations, mm/sec^2
M203 X500 Y500 Z12 E120 ; sets maximum feedrates, mm/sec
M204 S1500 T1500 ; sets acceleration (S) and retract acceleration (T)
M205 X10 Y10 Z0.2 E2.5 ; sets the jerk limits, mm/sec
M205 S0 T0 ; sets the minimum extruding and travel feed rate, mm/sec
; Start G-Code sequence START
T?
M104 S208
M140 S60
M109 S208
M190 S60
G21 ; set units to millimeters
G90 ; use absolute coordinates
M83 ; use relative distances for extrusion
G28 W
G80
G92 E0.0
M203 E100
M92 E140
G1 Z0.250 F7200.000
G1 X50.0 E80.0  F1000.0
G1 X160.0 E20.0  F1000.0
G1 Z0.200 F7200.000
G1 X220.0 E13 F1000.0
G1 X240.0 E0 F1000.0
G1 E-0 F1000.0
G92 E0.0
M900 K0.47; Filament gcode
G21 ; set units to millimeters
G90 ; use absolute coordinates
M83 ; use relative distances for extrusion
;BEFORE_LAYER_CHANGE
;0.2


G1 Z0.200 F6000.000
;AFTER_LAYER_CHANGE
;0.2
G1 E-2.80000 F2400.00000
G1 Z0.800 F6000.000
G1 X150.195 Y82.894 F6000.000
G1 Z0.200 F6000.000
G1 E2.80000 F1200.00000
M204 S500
G1 F1800
G1 X151.120 Y83.489 E0.03450
G1 X151.541 Y83.968 E0.01998
G1 X151.858 Y84.526 E0.02011
G1 X152.054 Y85.136 E0.02011
G1 X152.122 Y85.774 E0.02011
G1 X152.122 Y124.249 E1.20636
G1 X152.058 Y124.813 E0.01779
G1 X151.893 Y125.361 E0.01793
G1 X151.633 Y125.865 E0.01779
G1 X151.286 Y126.314 E0.01779
G1 X150.430 Y126.965 E0.03369
G1 X149.406 Y127.287 E0.03369
G1 X126.435 Y129.621 E0.72392
G1 X122.539 Y129.622 E0.12218
G1 X116.291 Y129.441 E0.19598
G1 X102.578 Y128.211 E0.43168
G1 X101.655 Y127.940 E0.03017
G1 X100.857 Y127.401 E0.03017
G1 X100.444 Y126.933 E0.01957
G1 X100.132 Y126.393 E0.01957
G1 X99.934 Y125.801 E0.01957
G1 X99.857 Y125.182 E0.01957
G1 X99.859 Y84.509 E1.27526
G1 X99.943 Y83.921 E0.01861
G1 X100.138 Y83.356 E0.01875
G1 X100.434 Y82.841 E0.01861
G1 X100.825 Y82.389 E0.01875
G1 X101.295 Y82.019 E0.01875
G1 X101.826 Y81.745 E0.01875
G1 X102.396 Y81.578 E0.01861
G1 X102.991 Y81.522 E0.01875
G1 X149.120 Y82.656 E1.44679
G1 X150.136 Y82.881 E0.03262
M204 S1000
G1 X150.040 Y83.239 F6000.000
M204 S500
G1 F1800
G1 X150.855 Y83.758 E0.03031
G1 X151.230 Y84.181 E0.01771
G1 X151.510 Y84.671 E0.01771
G1 X151.684 Y85.209 E0.01771
G1 X151.745 Y85.774 E0.01784
G1 X151.745 Y124.233 E1.20585
G1 X151.548 Y125.208 E0.03119
G1 X151.020 Y126.047 E0.03107
G1 X150.262 Y126.627 E0.02993
G1 X149.347 Y126.915 E0.03006
G1 X126.425 Y129.244 E0.72243
G1 X122.546 Y129.244 E0.12161
G1 X116.333 Y129.066 E0.19488
G1 X102.640 Y127.839 E0.43106
G1 X101.828 Y127.605 E0.02651
G1 X101.125 Y127.135 E0.02651
G1 X100.755 Y126.719 E0.01745
G1 X100.478 Y126.241 E0.01733
G1 X100.302 Y125.717 E0.01733
G1 X100.234 Y125.165 E0.01745
G1 X100.236 Y84.538 E1.27382
G1 X100.307 Y84.019 E0.01643
G1 X100.477 Y83.519 E0.01656
G1 X100.738 Y83.064 E0.01643
G1 X101.082 Y82.664 E0.01656
G1 X101.493 Y82.339 E0.01643
G1 X101.962 Y82.097 E0.01656
G1 X102.465 Y81.949 E0.01643
G1 X102.991 Y81.899 E0.01656
G1 X149.096 Y83.033 E1.44603
G1 X149.982 Y83.226 E0.02843
M204 S1000
G1 X149.891 Y83.585 F6000.000
M204 S500
G1 F1800
G1 X150.593 Y84.028 E0.02602
G1 X150.919 Y84.395 E0.01538
G1 X151.163 Y84.820 E0.01538
G1 X151.315 Y85.286 E0.01538
G1 X151.368 Y85.774 E0.01538
G1 X151.368 Y124.222 E1.20551
G1 X151.202 Y125.058 E0.02673
G1 X150.748 Y125.784 E0.02684
G1 X150.088 Y126.293 E0.02614
G1 X149.292 Y126.542 E0.02614
G1 X126.417 Y128.867 E0.72092
G1 X122.554 Y128.867 E0.12115
G1 X116.374 Y128.691 E0.19385
G1 X102.700 Y127.466 E0.43045
G1 X101.999 Y127.268 E0.02284
G1 X101.388 Y126.865 E0.02296
G1 X100.822 Y126.088 E0.03013
G1 X100.611 Y125.151 E0.03013
G1 X100.612 Y84.569 E1.27240
G1 X100.815 Y83.688 E0.02837
G1 X101.336 Y82.943 E0.02849
G1 X102.098 Y82.449 E0.02849
G1 X102.990 Y82.276 E0.02849
G1 X149.080 Y83.410 E1.44555
G1 X149.832 Y83.572 E0.02414
M204 S1000
G1 E-1.68000 F2400.00000
G1 F4800
G1 X150.593 Y84.028 E-0.42108
G1 F4800
G1 X150.919 Y84.395 E-0.23298
G1 F4800
G1 X151.163 Y84.820 E-0.23298
G1 F4800
G1 X151.279 Y85.174 E-0.17696
G1 E-0.05600 F2400.00000
G1 Z0.800 F6000.000
G1 X144.466 Y89.894 F6000.000
G1 Z0.200 F6000.000
G1 E2.80000 F1200.00000
M204 S500
G1 F1800
G1 X144.466 Y85.785 E0.12883
G1 X143.712 Y85.785 E0.02365
G1 X143.712 Y89.724 E0.12351
G1 X142.958 Y89.724 E0.02365
G1 X142.958 Y85.785 E0.12351
G1 X142.204 Y85.785 E0.02365
G1 X142.204 Y89.724 E0.12351
G1 X141.449 Y89.724 E0.02365
G1 X141.449 Y85.785 E0.12351
G1 X140.695 Y85.785 E0.02365
G1 X140.695 Y89.724 E0.12351
G1 X139.941 Y89.724 E0.02365
G1 X139.941 Y88.209 E0.04752
G1 X139.187 Y88.209 E0.02365
G1 X139.187 Y89.724 E0.04752
G1 X138.433 Y89.724 E0.02365
G1 X138.433 Y88.209 E0.04752
G1 X137.679 Y88.209 E0.02365
G1 X137.679 Y89.724 E0.04752
G1 X136.924 Y89.724 E0.02365
G1 X136.924 Y88.209 E0.04752
G1 X136.170 Y88.209 E0.02365
G1 X136.170 Y89.724 E0.04752
G1 X135.416 Y89.724 E0.02365
G1 X135.416 Y88.209 E0.04752
G1 X134.662 Y88.209 E0.02365
G1 X134.662 Y89.894 E0.05284
M204 S1000
G1 E-1.68000 F2400.00000
G1 F4800
G1 X134.662 Y88.209 E-0.80056
G1 F4800
G1 X135.217 Y88.209 E-0.26344
G1 E-0.05600 F2400.00000
G1 Z0.800 F6000.000
G1 X139.941 Y87.775 F6000.000
G1 Z0.200 F6000.000
G1 E2.80000 F1200.00000
M204 S500
G1 F1800
G1 X139.941 Y85.785 E0.06239
G1 X139.187 Y85.785 E0.02365
G1 X139.187 Y86.781 E0.03122
G1 X138.433 Y86.027 E0.03344
G1 X138.433 Y85.615 E0.01289
M204 S1000
G1 E-1.68000 F2400.00000
G1 F4800
G1 X138.433 Y86.027 E-0.19534
G1 F4800
G1 X139.187 Y86.781 E-0.50661
G1 F4800
G1 X139.187 Y86.019 E-0.36206
G1 E-0.05600 F2400.00000
G1 Z0.800 F6000.000
G1 X130.137 Y86.197 F6000.000
G1 Z0.200 F6000.000
G1 E2.80000 F1200.00000
M204 S500
G1 F1800
G1 X130.137 Y85.785 E0.01292
G1 X129.383 Y85.785 E0.02365
G1 X129.383 Y86.711 E0.02904
G1 X128.629 Y87.466 E0.03344
G1 X128.629 Y85.785 E0.05269
G1 X127.875 Y85.785 E0.02365
G1 X127.875 Y89.724 E0.12351
G1 X127.120 Y89.724 E0.02365
G1 X127.120 Y85.785 E0.12351
G1 X126.366 Y85.785 E0.02365
G1 X126.366 Y89.724 E0.12351
G1 X125.612 Y89.724 E0.02365
G1 X125.612 Y85.785 E0.12351
G1 X124.858 Y85.785 E0.02365
G1 X124.858 Y89.724 E0.12351
G1 X124.104 Y89.724 E0.02365
G1 X124.104 Y85.785 E0.12351
G1 X123.350 Y85.785 E0.02365
G1 X123.350 Y112.479 E0.83696
G1 X124.104 Y112.479 E0.02365
G1 X124.104 Y91.209 E0.66691
G1 X124.858 Y91.209 E0.02365
G1 X124.858 Y112.479 E0.66691
G1 X125.612 Y112.479 E0.02365
G1 X125.612 Y91.209 E0.66691
G1 X126.366 Y91.209 E0.02365
G1 X126.366 Y112.479 E0.66691
G1 X127.120 Y112.479 E0.02365
G1 X127.120 Y91.209 E0.66691
G1 X127.875 Y91.209 E0.02365
G1 X127.875 Y112.479 E0.66691
G1 X128.629 Y112.479 E0.02365
G1 X128.629 Y91.209 E0.66691
G1 X128.978 Y91.209 E0.01096
G1 X128.978 Y101.935 E0.33631
G1 X129.383 Y101.935 E0.01268
G1 X129.383 Y112.479 E0.33060
G1 X130.137 Y112.479 E0.02365
G1 X130.137 Y101.935 E0.33060
G1 X130.891 Y101.935 E0.02365
G1 X130.891 Y112.479 E0.33060
G1 X131.645 Y112.479 E0.02365
G1 X131.645 Y101.935 E0.33060
G1 X132.400 Y101.935 E0.02365
G1 X132.400 Y112.479 E0.33060
G1 X133.154 Y112.479 E0.02365
G1 X133.154 Y101.935 E0.33060
G1 X133.908 Y101.935 E0.02365
G1 X133.908 Y112.479 E0.33060
G1 X134.662 Y112.479 E0.02365
G1 X134.662 Y91.209 E0.66691
G1 X135.416 Y91.209 E0.02365
G1 X135.416 Y112.479 E0.66691
G1 X136.170 Y112.479 E0.02365
G1 X136.170 Y91.209 E0.66691
G1 X136.924 Y91.209 E0.02365
G1 X136.924 Y118.791 E0.86484
G1 X137.679 Y118.791 E0.02365
G1 X137.679 Y91.209 E0.86484
G1 X138.433 Y91.209 E0.02365
G1 X138.433 Y118.791 E0.86484
G1 X139.187 Y118.791 E0.02365
G1 X139.187 Y91.209 E0.86484
G1 X139.941 Y91.209 E0.02365
G1 X139.941 Y118.791 E0.86484
G1 X140.695 Y118.791 E0.02365
G1 X140.695 Y91.209 E0.86484
G1 X141.449 Y91.209 E0.02365
G1 X141.449 Y118.791 E0.86484
G1 X142.204 Y118.791 E0.02365
G1 X142.204 Y91.209 E0.86484
G1 X142.958 Y91.209 E0.02365
G1 X142.958 Y118.791 E0.86484
G1 X143.712 Y118.791 E0.02365
G1 X143.712 Y91.209 E0.86484
G1 X144.466 Y91.209 E0.02365
G1 X144.466 Y118.961 E0.87016
M204 S1000
G1 E-1.68000 F2400.00000
G1 F4800
G1 X144.466 Y116.721 E-1.06400
G1 E-0.05600 F2400.00000
G1 Z0.800 F6000.000
G1 X148.991 Y124.184 F6000.000
G1 Z0.200 F6000.000
G1 E2.80000 F1200.00000
M204 S500
G1 F1800
G1 X148.991 Y85.785 E1.20396
G1 X148.237 Y85.785 E0.02365
G1 X148.237 Y124.014 E1.19864
G1 X147.483 Y124.014 E0.02365
G1 X147.483 Y85.785 E1.19864
G1 X146.729 Y85.785 E0.02365
G1 X146.729 Y124.014 E1.19864
G1 X145.974 Y124.014 E0.02365
G1 X145.974 Y85.785 E1.19864
G1 X145.220 Y85.785 E0.02365
G1 X145.220 Y124.014 E1.19864
G1 X144.466 Y124.014 E0.02365
G1 X144.466 Y120.276 E0.11721
G1 X143.712 Y120.276 E0.02365
G1 X143.712 Y124.014 E0.11721
G1 X142.958 Y124.014 E0.02365
G1 X142.958 Y120.276 E0.11721
G1 X142.204 Y120.276 E0.02365
G1 X142.204 Y121.791 E0.04752
G1 X141.449 Y121.791 E0.02365
G1 X141.449 Y120.276 E0.04752
G1 X140.695 Y120.276 E0.02365
G1 X140.695 Y121.791 E0.04752
G1 X139.941 Y121.791 E0.02365
G1 X139.941 Y120.276 E0.04752
G1 X139.187 Y120.276 E0.02365
G1 X139.187 Y121.707 E0.04488
G1 X138.433 Y121.707 E0.02365
G1 X138.433 Y120.276 E0.04488
G1 X137.679 Y120.276 E0.02365
G1 X137.679 Y121.707 E0.04488
G1 X136.924 Y121.707 E0.02365
G1 X136.924 Y120.106 E0.05020
M204 S1000
G1 E-1.68000 F2400.00000
G1 F4800
G1 X136.924 Y121.707 E-0.76045
G1 F4800
G1 X137.564 Y121.707 E-0.30355
G1 E-0.05600 F2400.00000
G1 Z0.800 F6000.000
G1 X126.366 Y115.607 F6000.000
G1 Z0.200 F6000.000
G1 E2.80000 F1200.00000
M204 S500
G1 F1800
G1 X126.366 Y118.791 E0.09983
G1 X125.612 Y118.791 E0.02365
G1 X125.612 Y115.777 E0.09451
G1 X124.858 Y115.777 E0.02365
G1 X124.858 Y118.791 E0.09451
G1 X124.104 Y118.791 E0.02365
G1 X124.104 Y115.777 E0.09451
G1 X123.350 Y115.777 E0.02365
G1 X123.350 Y126.321 E0.33060
G1 X124.104 Y126.321 E0.02365
G1 X124.104 Y120.276 E0.18955
G1 X124.858 Y120.276 E0.02365
G1 X124.858 Y126.321 E0.18955
G1 X125.612 Y126.321 E0.02365
G1 X125.612 Y120.276 E0.18955
G1 X126.366 Y120.276 E0.02365
G1 X126.366 Y126.491 E0.19487
M204 S1000
G1 X122.595 Y126.491 F6000.000
M204 S500
G1 F1800
G1 X122.595 Y115.777 E0.33592
G1 X122.057 Y115.777 E0.01688
G1 X122.057 Y112.479 E0.10342
G1 X122.595 Y112.479 E0.01688
G1 X122.595 Y85.785 E0.83696
G1 X121.841 Y85.785 E0.02365
G1 X121.841 Y126.321 E1.27098
G1 X121.087 Y126.321 E0.02365
G1 X121.087 Y85.785 E1.27098
G1 X120.333 Y85.785 E0.02365
G1 X120.333 Y89.724 E0.12351
G1 X119.579 Y89.724 E0.02365
G1 X119.579 Y85.785 E0.12351
G1 X118.825 Y85.785 E0.02365
G1 X118.825 Y89.724 E0.12351
G1 X118.070 Y89.724 E0.02365
G1 X118.070 Y85.785 E0.12351
G1 X117.316 Y85.785 E0.02365
G1 X117.316 Y89.724 E0.12351
G1 X116.562 Y89.724 E0.02365
G1 X116.562 Y85.785 E0.12351
G1 X115.808 Y85.785 E0.02365
G1 X115.808 Y89.724 E0.12351
G1 X115.054 Y89.724 E0.02365
G1 X115.054 Y88.209 E0.04752
G1 X114.300 Y88.209 E0.02365
G1 X114.300 Y89.724 E0.04752
G1 X113.546 Y89.724 E0.02365
G1 X113.546 Y88.209 E0.04752
G1 X112.791 Y88.209 E0.02365
G1 X112.791 Y89.724 E0.04752
G1 X112.037 Y89.724 E0.02365
G1 X112.037 Y88.209 E0.04752
G1 X111.283 Y88.209 E0.02365
G1 X111.283 Y89.724 E0.04752
G1 X110.529 Y89.724 E0.02365
G1 X110.529 Y88.209 E0.04752
G1 X109.775 Y88.209 E0.02365
G1 X109.775 Y89.724 E0.04752
G1 X109.021 Y89.724 E0.02365
G1 X109.021 Y88.209 E0.04752
G1 X108.266 Y88.209 E0.02365
G1 X108.266 Y89.724 E0.04752
G1 X107.512 Y89.724 E0.02365
G1 X107.512 Y88.209 E0.04752
G1 X106.758 Y88.209 E0.02365
G1 X106.758 Y89.724 E0.04752
G1 X106.004 Y89.724 E0.02365
G1 X106.004 Y87.910 E0.05690
G1 X105.250 Y87.156 E0.03344
G1 X105.250 Y89.724 E0.08054
G1 X105.060 Y89.724 E0.00594
G1 X104.792 Y89.993 E0.01191
G1 X104.792 Y90.940 E0.02969
G1 X105.060 Y91.209 E0.01191
G1 X105.250 Y91.209 E0.00594
G1 X105.250 Y118.791 E0.86484
G1 X106.004 Y118.791 E0.02365
G1 X106.004 Y91.209 E0.86484
G1 X106.758 Y91.209 E0.02365
G1 X106.758 Y118.791 E0.86484
G1 X107.512 Y118.791 E0.02365
G1 X107.512 Y91.209 E0.86484
G1 X108.266 Y91.209 E0.02365
G1 X108.266 Y118.791 E0.86484
G1 X109.021 Y118.791 E0.02365
G1 X109.021 Y91.209 E0.86484
G1 X109.775 Y91.209 E0.02365
G1 X109.775 Y118.791 E0.86484
G1 X110.529 Y118.791 E0.02365
G1 X110.529 Y91.209 E0.86484
G1 X111.283 Y91.209 E0.02365
G1 X111.283 Y118.791 E0.86484
G1 X112.037 Y118.791 E0.02365
G1 X112.037 Y91.209 E0.86484
G1 X112.791 Y91.209 E0.02365
G1 X112.791 Y118.791 E0.86484
G1 X113.546 Y118.791 E0.02365
G1 X113.546 Y113.470 E0.16685
G1 X112.829 Y113.470 E0.02247
G1 X112.829 Y98.636 E0.46511
G1 X113.546 Y98.636 E0.02247
G1 X113.546 Y91.209 E0.23289
G1 X114.300 Y91.209 E0.02365
G1 X114.300 Y118.791 E0.86484
G1 X115.054 Y118.791 E0.02365
G1 X115.054 Y91.209 E0.86484
G1 X115.808 Y91.209 E0.02365
G1 X115.808 Y118.791 E0.86484
G1 X116.562 Y118.791 E0.02365
G1 X116.562 Y91.209 E0.86484
G1 X117.316 Y91.209 E0.02365
G1 X117.316 Y118.791 E0.86484
G1 X118.070 Y118.791 E0.02365
G1 X118.070 Y91.209 E0.86484
G1 X118.825 Y91.209 E0.02365
G1 X118.825 Y118.791 E0.86484
G1 X119.579 Y118.791 E0.02365
G1 X119.579 Y91.209 E0.86484
G1 X120.333 Y91.209 E0.02365
G1 X120.333 Y118.791 E0.86484
G1 X120.440 Y118.791 E0.00336
G1 X120.709 Y119.060 E0.01191
G1 X120.709 Y120.007 E0.02969
G1 X120.440 Y120.276 E0.01191
G1 X120.333 Y120.276 E0.00336
G1 X120.333 Y126.321 E0.18955
G1 X119.579 Y126.321 E0.02365
G1 X119.579 Y120.276 E0.18955
G1 X118.825 Y120.276 E0.02365
G1 X118.825 Y126.321 E0.18955
G1 X118.070 Y126.321 E0.02365
G1 X118.070 Y120.276 E0.18955
G1 X117.316 Y120.276 E0.02365
G1 X117.316 Y126.321 E0.18955
G1 X116.562 Y126.321 E0.02365
G1 X116.562 Y120.276 E0.18955
G1 X115.808 Y120.276 E0.02365
G1 X115.808 Y121.791 E0.04752
G1 X115.054 Y121.791 E0.02365
G1 X115.054 Y120.276 E0.04752
G1 X114.300 Y120.276 E0.02365
G1 X114.300 Y121.791 E0.04752
G1 X113.546 Y121.791 E0.02365
G1 X113.546 Y120.276 E0.04752
G1 X112.791 Y120.276 E0.02365
G1 X112.791 Y121.791 E0.04752
G1 X112.037 Y121.791 E0.02365
G1 X112.037 Y120.276 E0.04752
G1 X111.283 Y120.276 E0.02365
G1 X111.283 Y121.791 E0.04752
G1 X110.529 Y121.791 E0.02365
G1 X110.529 Y120.276 E0.04752
G1 X109.775 Y120.276 E0.02365
G1 X109.775 Y121.791 E0.04752
G1 X109.021 Y121.791 E0.02365
G1 X109.021 Y120.276 E0.04752
G1 X108.266 Y120.276 E0.02365
G1 X108.266 Y121.791 E0.04752
G1 X107.512 Y121.791 E0.02365
G1 X107.512 Y120.276 E0.04752
G1 X106.758 Y120.276 E0.02365
G1 X106.758 Y121.791 E0.04752
G1 X106.302 Y121.791 E0.01429
G1 X106.004 Y122.090 E0.01324
G1 X106.004 Y120.276 E0.05688
G1 X105.250 Y120.276 E0.02365
G1 X105.250 Y122.844 E0.08053
G1 X104.496 Y123.598 E0.03344
G1 X104.496 Y86.401 E1.16628
G1 X103.741 Y85.647 E0.03344
G1 X103.741 Y124.352 E1.21357
G1 X102.987 Y125.107 E0.03344
G1 X102.987 Y84.653 E1.26839
M204 S1000
G1 E-1.68000 F2400.00000
G1 F4800
G1 X102.987 Y86.893 E-1.06400
G1 E-0.05600 F2400.00000
G1 Z0.800 F6000.000
G1 X114.300 Y86.633 F6000.000
G1 Z0.200 F6000.000
G1 E2.80000 F1200.00000
M204 S500
G1 F1800
G1 X114.300 Y85.785 E0.02660
G1 X115.054 Y85.785 E0.02365
G1 X115.054 Y87.388 E0.05025
M204 S1000
G1 X128.629 Y88.039 F6000.000
M204 S500
G1 F1800
G1 X128.629 Y89.894 E0.05816
M204 S1000
G1 E-1.68000 F2400.00000
G1 F4800
G1 X128.629 Y88.039 E-0.88116
G1 E-0.23884 F2400.00000
G1 Z0.800 F6000.000
G1 X120.040 Y119.460 F6000.000
G1 Z0.200 F6000.000
G1 E2.80000 F1200.00000
M204 S500
G1 F1800
G1 X120.040 Y119.607 E0.00461
G1 X105.460 Y119.607 E0.45716
G1 X105.460 Y119.460 E0.00461
G1 X119.980 Y119.460 E0.45528
M204 S1000
G1 X119.967 Y119.588 F6000.000
G1 E-1.68000 F2400.00000
G1 F4800
G1 X120.040 Y119.607 E-0.07547
G1 F4800
G1 X117.959 Y119.607 E-0.98853
G1 E-0.05600 F2400.00000
G1 Z0.800 F6000.000
G1 X123.960 Y119.460 F6000.000
G1 Z0.200 F6000.000
G1 E2.80000 F1200.00000
M204 S500
G1 F1800
G1 X144.540 Y119.460 E0.64527
G1 X144.540 Y119.607 E0.00461
G1 X123.960 Y119.607 E0.64527
G1 X123.960 Y119.520 E0.00273
M204 S1000
