; generated by Slic3r Prusa Edition 1.39.1-beta1-prusa3d-win64 on 2018-05-14 at 09:21:41

; 

; external perimeters extrusion width = 0.45mm
; perimeters extrusion width = 0.45mm
; infill extrusion width = 0.45mm
; solid infill extrusion width = 0.45mm
; top infill extrusion width = 0.40mm
; support material extrusion width = 0.35mm
; first layer extrusion width = 0.42mm

M107
M115 U3.1.0 ; tell printer latest fw version
M201 X9000 Y9000 Z500 E10000 ; sets maximum accelerations, mm/sec^2
M203 X500 Y500 Z12 E120 ; sets maximum feedrates, mm/sec
M204 S1500 T1500 ; sets acceleration (S) and retract acceleration (T)
M205 X10 Y10 Z0.2 E2.5 ; sets the jerk limits, mm/sec
M205 S0 T0 ; sets the minimum extruding and travel feed rate, mm/sec
; Start G-Code sequence START
T?
M104 S208
M140 S60
M109 S208
M190 S60
G21 ; set units to millimeters
G90 ; use absolute coordinates
M83 ; use relative distances for extrusion
G28 W
G80
G92 E0.0
M203 E100
M92 E140
G1 Z0.250 F7200.000
G1 X50.0 E80.0  F1000.0
G1 X160.0 E20.0  F1000.0
G1 Z0.200 F7200.000
G1 X220.0 E13 F1000.0
G1 X240.0 E0 F1000.0
G1 E-0 F1000.0
G92 E0.0
M900 K0.47; Filament gcode
G21 ; set units to millimeters
G90 ; use absolute coordinates
M83 ; use relative distances for extrusion
;BEFORE_LAYER_CHANGE
;0.2


G1 Z0.200 F6000.000
;AFTER_LAYER_CHANGE
;0.2
G1 E-2.80000 F2400.00000
G1 Z0.800 F6000.000
G1 X122.741 Y93.286 F6000.000
G1 Z0.200 F6000.000
G1 E2.80000 F1200.00000
M204 S500
G1 F1800
G1 X123.303 Y92.823 E0.02284
G1 X123.957 Y92.502 E0.02284
G1 X124.672 Y92.341 E0.02298
G1 X138.579 Y92.154 E0.43609
G1 X146.738 Y92.386 E0.25591
G1 X147.462 Y92.627 E0.02393
G1 X148.109 Y93.039 E0.02406
G1 X148.634 Y93.593 E0.02393
G1 X149.011 Y94.261 E0.02406
G1 X149.185 Y94.829 E0.01861
G1 X149.247 Y95.420 E0.01861
G1 X149.248 Y115.423 E0.62718
G1 X149.135 Y116.230 E0.02556
G1 X148.815 Y116.985 E0.02570
G1 X148.338 Y117.603 E0.02447
G1 X147.720 Y118.086 E0.02461
G1 X147.005 Y118.399 E0.02447
G1 X146.230 Y118.526 E0.02461
G1 X139.307 Y118.528 E0.21708
G1 X124.919 Y118.357 E0.45116
G1 X124.139 Y118.237 E0.02474
G1 X123.414 Y117.927 E0.02474
G1 X122.802 Y117.457 E0.02420
G1 X122.321 Y116.847 E0.02434
G1 X122.004 Y116.139 E0.02434
G1 X121.872 Y115.374 E0.02434
G1 X121.430 Y104.924 E0.32793
G1 X121.878 Y95.210 E0.30490
G1 X122.013 Y94.516 E0.02216
G1 X122.301 Y93.866 E0.02229
G1 X122.705 Y93.334 E0.02096
M204 S1000
G1 X123.004 Y93.563 F6000.000
M204 S500
G1 F1800
G1 X123.530 Y93.126 E0.02146
G1 X124.109 Y92.848 E0.02014
G1 X124.741 Y92.713 E0.02026
G1 X138.577 Y92.531 E0.43387
G1 X146.622 Y92.747 E0.25234
G1 X147.273 Y92.955 E0.02141
G1 X147.856 Y93.319 E0.02154
G1 X148.330 Y93.816 E0.02154
G1 X148.667 Y94.415 E0.02154
G1 X148.870 Y95.426 E0.03233
G1 X148.871 Y115.417 E0.62682
G1 X148.769 Y116.138 E0.02282
G1 X148.480 Y116.810 E0.02294
G1 X148.057 Y117.351 E0.02154
G1 X147.513 Y117.770 E0.02154
G1 X146.882 Y118.042 E0.02154
G1 X146.203 Y118.149 E0.02154
G1 X139.309 Y118.151 E0.21618
G1 X124.930 Y117.980 E0.45084
G1 X124.235 Y117.873 E0.02205
G1 X123.587 Y117.591 E0.02218
G1 X123.101 Y117.222 E0.01912
G1 X122.707 Y116.752 E0.01924
G1 X122.427 Y116.210 E0.01912
G1 X122.273 Y115.616 E0.01924
G1 X121.809 Y105.123 E0.32931
G1 X122.253 Y95.250 E0.30988
G1 X122.374 Y94.623 E0.02001
G1 X122.636 Y94.041 E0.02001
G1 X122.967 Y93.611 E0.01703
M204 S1000
G1 X122.968 Y94.220 F6000.000
M204 S500
G1 F1800
G1 X123.310 Y93.783 E0.01740
G1 X123.747 Y93.435 E0.01752
G1 X124.253 Y93.198 E0.01752
G1 X124.800 Y93.086 E0.01752
G1 X138.579 Y92.908 E0.43208
G1 X146.515 Y93.111 E0.24889
G1 X147.092 Y93.287 E0.01894
G1 X147.607 Y93.603 E0.01894
G1 X148.026 Y94.038 E0.01894
G1 X148.321 Y94.565 E0.01894
G1 X148.493 Y95.435 E0.02778
G1 X148.493 Y115.416 E0.62649
G1 X148.403 Y116.047 E0.02000
G1 X148.147 Y116.632 E0.02000
G1 X147.781 Y117.093 E0.01846
G1 X147.310 Y117.452 E0.01858
G1 X146.764 Y117.684 E0.01858
G1 X146.178 Y117.773 E0.01858
G1 X139.310 Y117.774 E0.21536
G1 X124.945 Y117.603 E0.45043
G1 X124.333 Y117.509 E0.01941
G1 X123.764 Y117.257 E0.01953
G1 X123.346 Y116.934 E0.01657
G1 X123.007 Y116.523 E0.01669
G1 X122.770 Y116.051 E0.01657
G1 X122.643 Y115.534 E0.01668
G1 X122.185 Y105.096 E0.32758
G1 X122.629 Y95.284 E0.30796
G1 X122.735 Y94.732 E0.01763
G1 X122.944 Y94.275 E0.01575
M204 S1000
G1 E-1.68000 F2400.00000
G1 F4800
G1 X123.310 Y93.783 E-0.29134
G1 F4800
G1 X123.747 Y93.435 E-0.26535
G1 F4800
G1 X124.253 Y93.198 E-0.26535
G1 F4800
G1 X124.752 Y93.096 E-0.24196
G1 E-0.05600 F2400.00000
G1 Z0.800 F6000.000
G1 X134.804 Y95.843 F6000.000
G1 Z0.200 F6000.000
G1 E2.80000 F1200.00000
M204 S500
G1 F1800
G1 X134.804 Y95.455 E0.01218
G1 X134.050 Y95.455 E0.02365
G1 X134.050 Y95.673 E0.00686
G1 X133.296 Y95.706 E0.02367
G1 X133.296 Y95.455 E0.00788
G1 X132.542 Y95.455 E0.02365
G1 X132.542 Y95.782 E0.01028
G1 X131.787 Y95.914 E0.02400
G1 X131.787 Y95.455 E0.01439
G1 X131.033 Y95.455 E0.02365
G1 X131.033 Y96.131 E0.02120
G1 X130.795 Y96.201 E0.00779
G1 X130.279 Y96.415 E0.01750
G1 X130.279 Y95.455 E0.03010
G1 X129.525 Y95.455 E0.02365
G1 X129.525 Y96.771 E0.04126
G1 X128.943 Y97.092 E0.02083
G1 X128.771 Y97.212 E0.00658
G1 X128.771 Y95.455 E0.05509
G1 X128.017 Y95.455 E0.02365
G1 X128.017 Y97.757 E0.07219
G1 X127.262 Y98.437 E0.03185
G1 X127.262 Y95.455 E0.09353
G1 X126.508 Y95.455 E0.02365
G1 X126.508 Y99.307 E0.12079
G1 X125.991 Y100.038 E0.02808
G1 X125.754 Y100.464 E0.01529
G1 X125.754 Y95.455 E0.15707
G1 X125.000 Y95.455 E0.02365
G1 X125.000 Y102.209 E0.21179
G1 X124.792 Y102.939 E0.02380
G1 X124.620 Y103.947 E0.03204
G1 X124.561 Y104.988 E0.03271
G1 X124.621 Y106.057 E0.03357
G1 X124.792 Y107.064 E0.03201
G1 X125.000 Y107.790 E0.02370
G1 X125.000 Y115.227 E0.23317
G1 X125.754 Y115.227 E0.02365
G1 X125.754 Y109.536 E0.17843
G1 X125.991 Y109.962 E0.01529
G1 X126.508 Y110.693 E0.02809
G1 X126.508 Y115.227 E0.14214
G1 X127.262 Y115.227 E0.02365
G1 X127.262 Y111.563 E0.11489
G1 X128.017 Y112.243 E0.03185
G1 X128.017 Y115.227 E0.09356
G1 X128.771 Y115.227 E0.02365
G1 X128.771 Y112.788 E0.07646
G1 X128.942 Y112.907 E0.00652
G1 X129.525 Y113.229 E0.02090
G1 X129.525 Y115.227 E0.06263
G1 X130.279 Y115.227 E0.02365
G1 X130.279 Y113.585 E0.05147
G1 X130.804 Y113.802 E0.01781
G1 X131.033 Y113.869 E0.00748
G1 X131.033 Y114.507 E0.01999
M204 S1000
G1 E-1.68000 F2400.00000
G1 F4800
G1 X131.033 Y113.869 E-0.30289
G1 F4800
G1 X130.804 Y113.802 E-0.11334
G1 F4800
G1 X130.279 Y113.585 E-0.26988
G1 F4800
G1 X130.279 Y114.381 E-0.37789
G1 E-0.05600 F2400.00000
G1 Z0.800 F6000.000
G1 X139.329 Y115.397 F6000.000
G1 Z0.200 F6000.000
G1 E2.80000 F1200.00000
M204 S500
G1 F1800
G1 X139.329 Y114.327 E0.03354
G1 X140.083 Y114.327 E0.02365
G1 X140.083 Y115.227 E0.02822
G1 X140.837 Y115.227 E0.02365
G1 X140.837 Y114.327 E0.02822
G1 X141.268 Y114.327 E0.01349
G1 X141.543 Y113.990 E0.01363
G1 X141.071 Y111.655 E0.07469
G1 X140.837 Y110.105 E0.04917
G1 X140.837 Y104.683 E0.16999
G1 X141.591 Y104.683 E0.02365
G1 X141.591 Y115.227 E0.33060
G1 X142.346 Y115.227 E0.02365
G1 X142.346 Y104.683 E0.33060
G1 X143.100 Y104.683 E0.02365
G1 X143.100 Y115.227 E0.33060
G1 X143.854 Y115.227 E0.02365
G1 X143.854 Y104.683 E0.33060
G1 X144.608 Y104.683 E0.02365
G1 X144.608 Y115.227 E0.33060
G1 X145.362 Y115.227 E0.02365
G1 X145.362 Y104.683 E0.33060
G1 X146.116 Y104.683 E0.02365
G1 X146.116 Y115.397 E0.33592
M204 S1000
G1 E-1.68000 F2400.00000
G1 F4800
G1 X146.116 Y113.157 E-1.06400
G1 E-0.05600 F2400.00000
G1 Z0.800 F6000.000
G1 X146.116 Y103.861 F6000.000
G1 Z0.200 F6000.000
G1 E2.80000 F1200.00000
M204 S500
G1 F1800
G1 X146.116 Y95.455 E0.26358
G1 X145.362 Y95.455 E0.02365
G1 X145.362 Y103.691 E0.25826
G1 X144.608 Y103.691 E0.02365
G1 X144.608 Y95.455 E0.25826
G1 X143.854 Y95.455 E0.02365
G1 X143.854 Y103.691 E0.25826
G1 X143.100 Y103.691 E0.02365
G1 X143.100 Y95.455 E0.25826
G1 X142.346 Y95.455 E0.02365
G1 X142.346 Y103.691 E0.25826
G1 X141.591 Y103.691 E0.02365
G1 X141.591 Y95.455 E0.25826
G1 X140.837 Y95.455 E0.02365
G1 X140.837 Y95.673 E0.00686
G1 X140.083 Y95.673 E0.02365
G1 X140.083 Y95.455 E0.00686
G1 X139.329 Y95.455 E0.02365
G1 X139.329 Y95.673 E0.00686
G1 X138.575 Y95.673 E0.02365
G1 X138.575 Y95.285 E0.01218
M204 S1000
G1 E-1.68000 F2400.00000
G1 F4800
G1 X138.575 Y95.673 E-0.18451
G1 F4800
G1 X139.329 Y95.673 E-0.35823
G1 F4800
G1 X139.329 Y95.455 E-0.10391
G1 F4800
G1 X140.083 Y95.455 E-0.35823
G1 F4800
G1 X140.083 Y95.579 E-0.05913
G1 E-0.05600 F2400.00000
G1 Z0.800 F6000.000
G1 X140.837 Y98.736 F6000.000
G1 Z0.200 F6000.000
G1 E2.80000 F1200.00000
M204 S500
G1 F1800
G1 X140.837 Y103.861 E0.16070
M204 S1000
G1 E-1.68000 F2400.00000
G1 F4800
G1 X140.837 Y101.621 E-1.06400
G1 E-0.05600 F2400.00000
G1 Z0.800 F6000.000
G1 X134.085 Y104.524 F6000.000
G1 Z0.200 F6000.000
G1 E2.80000 F1200.00000
M204 S500
G1 F1800
G1 X134.127 Y105.000 E0.01497
G1 X134.085 Y105.476 E0.01497
G1 X133.962 Y105.937 E0.01497
G1 X133.760 Y106.370 E0.01497
G1 X133.486 Y106.761 E0.01498
G1 X133.148 Y107.098 E0.01497
G1 X132.757 Y107.372 E0.01497
G1 X132.325 Y107.574 E0.01496
G1 X131.863 Y107.698 E0.01499
G1 X131.388 Y107.739 E0.01497
G1 X130.912 Y107.698 E0.01496
G1 X130.451 Y107.574 E0.01499
G1 X130.018 Y107.372 E0.01496
G1 X129.627 Y107.098 E0.01498
G1 X129.289 Y106.761 E0.01497
G1 X129.015 Y106.370 E0.01497
G1 X128.813 Y105.937 E0.01497
G1 X128.690 Y105.476 E0.01497
G1 X128.648 Y105.000 E0.01496
G1 X128.690 Y104.524 E0.01498
G1 X128.813 Y104.063 E0.01496
G1 X129.015 Y103.630 E0.01498
G1 X129.289 Y103.239 E0.01497
G1 X129.627 Y102.901 E0.01498
G1 X130.018 Y102.628 E0.01497
G1 X130.451 Y102.426 E0.01497
G1 X130.912 Y102.302 E0.01497
G1 X131.388 Y102.261 E0.01497
G1 X131.863 Y102.302 E0.01498
G1 X132.325 Y102.426 E0.01497
G1 X132.757 Y102.628 E0.01496
G1 X133.149 Y102.902 E0.01498
G1 X133.486 Y103.239 E0.01496
G1 X133.760 Y103.630 E0.01498
G1 X133.962 Y104.063 E0.01497
G1 X134.070 Y104.466 E0.01309
M204 S1000
G1 X133.706 Y104.564 F6000.000
M204 S500
G1 F1800
G1 X133.748 Y105.000 E0.01374
G1 X133.713 Y105.410 E0.01290
G1 X133.606 Y105.807 E0.01290
G1 X133.432 Y106.180 E0.01290
G1 X133.196 Y106.518 E0.01291
G1 X132.905 Y106.809 E0.01290
G1 X132.568 Y107.045 E0.01290
G1 X132.195 Y107.218 E0.01289
G1 X131.797 Y107.325 E0.01292
G1 X131.388 Y107.361 E0.01290
G1 X130.978 Y107.325 E0.01289
G1 X130.580 Y107.218 E0.01292
G1 X130.207 Y107.045 E0.01289
G1 X129.870 Y106.808 E0.01291
G1 X129.579 Y106.518 E0.01290
G1 X129.343 Y106.180 E0.01290
G1 X129.169 Y105.807 E0.01290
G1 X129.063 Y105.410 E0.01290
G1 X129.027 Y105.000 E0.01290
G1 X129.063 Y104.590 E0.01292
G1 X129.169 Y104.193 E0.01289
G1 X129.343 Y103.820 E0.01291
G1 X129.579 Y103.483 E0.01290
G1 X129.870 Y103.191 E0.01291
G1 X130.207 Y102.955 E0.01290
G1 X130.580 Y102.782 E0.01290
G1 X130.978 Y102.675 E0.01290
G1 X131.388 Y102.639 E0.01290
G1 X131.798 Y102.675 E0.01291
G1 X132.195 Y102.782 E0.01290
G1 X132.568 Y102.955 E0.01290
G1 X132.905 Y103.192 E0.01292
G1 X133.196 Y103.482 E0.01289
G1 X133.432 Y103.820 E0.01291
G1 X133.606 Y104.193 E0.01290
G1 X133.690 Y104.506 E0.01017
M204 S1000
G1 X134.083 Y104.698 F6000.000
G1 E-1.68000 F2400.00000
G1 F4800
G1 X133.748 Y105.000 E-0.23628
G1 F4800
G1 X133.713 Y105.410 E-0.19547
G1 F4800
G1 X133.606 Y105.807 E-0.19547
G1 F4800
G1 X133.432 Y106.180 E-0.19547
G1 F4800
G1 X133.196 Y106.518 E-0.19554
G1 F4800
G1 X133.128 Y106.586 E-0.04577
G1 E-0.05600 F2400.00000
G1 Z0.800 F6000.000
G1 X140.333 Y96.719 F6000.000
G1 Z0.200 F6000.000
G1 E2.80000 F1200.00000
M204 S500
G1 F1800
G1 X140.052 Y98.104 E0.04431
G1 X139.857 Y99.322 E0.03866
G1 X139.714 Y100.429 E0.03500
G1 X139.602 Y101.542 E0.03509
G1 X139.518 Y102.705 E0.03654
G1 X139.469 Y103.843 E0.03573
G1 X139.453 Y104.988 E0.03590
G1 X139.469 Y106.157 E0.03665
G1 X139.518 Y107.295 E0.03573
G1 X139.602 Y108.458 E0.03655
G1 X139.716 Y109.586 E0.03555
G1 X139.860 Y110.696 E0.03510
G1 X140.041 Y111.837 E0.03622
G1 X140.333 Y113.281 E0.04620
G1 X133.904 Y113.281 E0.20156
G1 X132.961 Y113.228 E0.02963
G1 X132.045 Y113.073 E0.02911
G1 X131.154 Y112.816 E0.02909
G1 X130.290 Y112.458 E0.02930
G1 X129.482 Y112.011 E0.02895
G1 X128.725 Y111.474 E0.02912
G1 X128.033 Y110.855 E0.02911
G1 X127.412 Y110.160 E0.02920
G1 X126.876 Y109.405 E0.02903
G1 X126.427 Y108.593 E0.02911
G1 X126.075 Y107.742 E0.02887
G1 X125.815 Y106.842 E0.02938
G1 X125.659 Y105.927 E0.02910
G1 X125.607 Y105.000 E0.02911
G1 X125.660 Y104.073 E0.02911
G1 X125.815 Y103.158 E0.02911
G1 X126.075 Y102.258 E0.02936
G1 X126.427 Y101.407 E0.02887
G1 X126.877 Y100.595 E0.02911
G1 X127.414 Y99.837 E0.02912
G1 X128.030 Y99.148 E0.02900
G1 X128.728 Y98.524 E0.02935
G1 X129.484 Y97.988 E0.02905
G1 X130.296 Y97.539 E0.02908
G1 X131.154 Y97.184 E0.02911
G1 X132.046 Y96.927 E0.02911
G1 X132.961 Y96.772 E0.02911
G1 X133.904 Y96.719 E0.02962
G1 X140.273 Y96.719 E0.19968
M204 S1000
G1 X140.794 Y96.342 F6000.000
M204 S500
G1 F1800
G1 X140.423 Y98.171 E0.05852
G1 X140.231 Y99.376 E0.03824
G1 X140.089 Y100.472 E0.03465
G1 X139.978 Y101.575 E0.03475
G1 X139.894 Y102.726 E0.03621
G1 X139.846 Y103.854 E0.03539
G1 X139.830 Y104.988 E0.03556
G1 X139.846 Y106.146 E0.03631
G1 X139.894 Y107.274 E0.03539
G1 X139.978 Y108.425 E0.03621
G1 X140.090 Y109.543 E0.03521
G1 X140.233 Y110.642 E0.03476
G1 X140.412 Y111.770 E0.03580
G1 X140.794 Y113.658 E0.06040
G1 X133.893 Y113.658 E0.21635
G1 X132.918 Y113.603 E0.03063
G1 X131.961 Y113.441 E0.03044
G1 X131.029 Y113.172 E0.03042
G1 X130.126 Y112.798 E0.03063
G1 X129.281 Y112.331 E0.03028
G1 X128.490 Y111.769 E0.03044
G1 X127.766 Y111.122 E0.03044
G1 X127.117 Y110.396 E0.03053
G1 X126.557 Y109.606 E0.03036
G1 X126.087 Y108.756 E0.03043
G1 X125.719 Y107.867 E0.03019
G1 X125.447 Y106.926 E0.03071
G1 X125.284 Y105.969 E0.03043
G1 X125.230 Y105.000 E0.03043
G1 X125.284 Y104.031 E0.03044
G1 X125.447 Y103.074 E0.03044
G1 X125.719 Y102.133 E0.03069
G1 X126.087 Y101.244 E0.03019
G1 X126.557 Y100.394 E0.03044
G1 X127.119 Y99.602 E0.03044
G1 X127.763 Y98.881 E0.03033
G1 X128.493 Y98.229 E0.03068
G1 X129.283 Y97.668 E0.03038
G1 X130.132 Y97.199 E0.03041
G1 X131.029 Y96.828 E0.03043
G1 X131.962 Y96.559 E0.03043
G1 X132.918 Y96.397 E0.03043
G1 X133.893 Y96.342 E0.03062
G1 X140.734 Y96.342 E0.21447
M204 S1000
G1 X140.550 Y96.659 F6000.000
G1 X140.064 Y97.475 F6000.000
M204 S500
G1 F1800
G1 X139.590 Y97.002 E0.02141
G1 X139.047 Y97.002 E0.01737
G1 X139.829 Y97.783 E0.03534
G1 X139.744 Y98.242 E0.01491
G1 X138.503 Y97.002 E0.05607
G1 X137.960 Y97.002 E0.01737
G1 X139.669 Y98.711 E0.07726
G1 X139.594 Y99.180 E0.01517
G1 X137.416 Y97.002 E0.09844
G1 X136.872 Y97.002 E0.01737
G1 X139.529 Y99.658 E0.12007
G1 X139.466 Y100.139 E0.01551
G1 X136.329 Y97.002 E0.14182
G1 X135.785 Y97.002 E0.01737
G1 X139.410 Y100.626 E0.16384
G1 X139.360 Y101.120 E0.01587
G1 X135.242 Y97.002 E0.18617
G1 X134.698 Y97.002 E0.01737
G1 X139.313 Y101.617 E0.20861
G1 X139.276 Y102.124 E0.01625
G1 X134.154 Y97.002 E0.23152
G1 X133.627 Y97.018 E0.01687
G1 X139.240 Y102.631 E0.25371
G1 X139.216 Y103.150 E0.01662
G1 X133.112 Y97.047 E0.27589
G1 X132.636 Y97.114 E0.01537
G1 X139.193 Y103.671 E0.29641
G1 X139.181 Y104.203 E0.01699
G1 X132.171 Y97.193 E0.31685
G1 X131.743 Y97.309 E0.01416
G1 X139.173 Y104.739 E0.33584
G1 X139.174 Y105.283 E0.01739
G1 X131.321 Y97.430 E0.35494
G1 X130.930 Y97.583 E0.01342
G1 X139.182 Y105.834 E0.37297
G1 X139.196 Y106.392 E0.01784
G1 X130.546 Y97.742 E0.39100
G1 X130.184 Y97.924 E0.01294
G1 X139.220 Y106.960 E0.40844
G1 X139.252 Y107.535 E0.01840
G1 X129.834 Y98.118 E0.42568
G1 X129.498 Y98.325 E0.01263
G1 X139.294 Y108.121 E0.44280
G1 X139.344 Y108.714 E0.01902
G1 X129.180 Y98.550 E0.45941
G1 X128.866 Y98.780 E0.01243
G1 X132.180 Y102.094 E0.14981
G1 X131.913 Y102.023 E0.00885
G1 X131.532 Y101.989 E0.01223
G1 X128.579 Y99.037 E0.13347
G1 X128.292 Y99.293 E0.01230
G1 X131.009 Y102.010 E0.12280
G1 X130.863 Y102.023 E0.00468
G1 X130.559 Y102.104 E0.01004
G1 X128.029 Y99.574 E0.11437
G1 X127.772 Y99.861 E0.01231
G1 X130.161 Y102.249 E0.10795
G1 X129.802 Y102.434 E0.01290
G1 X127.530 Y100.162 E0.10267
G1 X127.305 Y100.480 E0.01246
G1 X129.482 Y102.658 E0.09842
