; generated by Slic3r Prusa Edition 1.39.1-beta1-prusa3d-win64 on 2018-05-14 at 15:22:37

; 

; external perimeters extrusion width = 0.45mm
; perimeters extrusion width = 0.45mm
; infill extrusion width = 0.45mm
; solid infill extrusion width = 0.45mm
; top infill extrusion width = 0.40mm
; support material extrusion width = 0.35mm
; first layer extrusion width = 0.42mm

M107
M115 U3.1.0 ; tell printer latest fw version
M201 X9000 Y9000 Z500 E10000 ; sets maximum accelerations, mm/sec^2
M203 X500 Y500 Z12 E120 ; sets maximum feedrates, mm/sec
M204 S1500 T1500 ; sets acceleration (S) and retract acceleration (T)
M205 X10 Y10 Z0.2 E2.5 ; sets the jerk limits, mm/sec
M205 S0 T0 ; sets the minimum extruding and travel feed rate, mm/sec
; Start G-Code sequence START
T?
M104 S208
M140 S60
M109 S208
M190 S60
G21 ; set units to millimeters
G90 ; use absolute coordinates
M83 ; use relative distances for extrusion
G28 W
G80
G92 E0.0
M203 E100
M92 E140
G1 Z0.250 F7200.000
G1 X50.0 E80.0  F1000.0
G1 X160.0 E20.0  F1000.0
G1 Z0.200 F7200.000
G1 X220.0 E13 F1000.0
G1 X240.0 E0 F1000.0
G1 E-0 F1000.0
G92 E0.0
M900 K0.47; Filament gcode
G21 ; set units to millimeters
G90 ; use absolute coordinates
M83 ; use relative distances for extrusion
;BEFORE_LAYER_CHANGE
;0.2


G1 Z0.200 F6000.000
;AFTER_LAYER_CHANGE
;0.2
G1 E-2.80000 F2400.00000
G1 Z0.800 F6000.000
G1 X106.739 Y93.493 F6000.000
G1 Z0.200 F6000.000
G1 E2.80000 F1200.00000
M204 S500
G1 F1800
G1 X107.297 Y92.953 E0.02434
G1 X107.970 Y92.566 E0.02434
G1 X108.718 Y92.358 E0.02434
G1 X119.745 Y92.154 E0.34580
G1 X125.894 Y92.326 E0.19290
G1 X126.529 Y92.416 E0.02011
G1 X127.246 Y92.692 E0.02406
G1 X127.870 Y93.131 E0.02393
G1 X128.370 Y93.707 E0.02393
G1 X128.717 Y94.392 E0.02406
G1 X128.902 Y95.429 E0.03301
G1 X128.903 Y115.410 E0.62649
G1 X128.830 Y116.069 E0.02080
G1 X128.618 Y116.702 E0.02093
G1 X128.170 Y117.409 E0.02624
G1 X127.548 Y117.975 E0.02637
G1 X126.801 Y118.354 E0.02624
G1 X125.977 Y118.521 E0.02637
G1 X120.462 Y118.528 E0.17293
G1 X109.102 Y118.357 E0.35620
G1 X108.474 Y118.278 E0.01984
G1 X107.876 Y118.073 E0.01984
G1 X107.168 Y117.626 E0.02624
G1 X106.602 Y117.004 E0.02637
G1 X106.222 Y116.254 E0.02637
G1 X106.055 Y115.429 E0.02637
G1 X105.610 Y104.948 E0.32893
G1 X106.056 Y95.245 E0.30455
G1 X106.144 Y94.689 E0.01766
G1 X106.332 Y94.153 E0.01779
G1 X106.708 Y93.544 E0.02245
M204 S1000
G1 X106.683 Y94.291 F6000.000
M204 S500
G1 F1800
G1 X107.049 Y93.710 E0.02154
G1 X107.547 Y93.237 E0.02154
G1 X108.147 Y92.901 E0.02154
G1 X108.811 Y92.725 E0.02154
G1 X119.743 Y92.531 E0.34282
G1 X125.869 Y92.702 E0.19216
G1 X126.393 Y92.771 E0.01656
G1 X127.038 Y93.009 E0.02154
G1 X127.603 Y93.398 E0.02154
G1 X128.055 Y93.916 E0.02154
G1 X128.367 Y94.533 E0.02167
G1 X128.525 Y95.433 E0.02866
G1 X128.525 Y115.409 E0.62633
G1 X128.460 Y115.994 E0.01848
G1 X128.269 Y116.556 E0.01860
G1 X127.870 Y117.180 E0.02320
G1 X127.320 Y117.674 E0.02320
G1 X126.658 Y118.004 E0.02320
G1 X125.932 Y118.146 E0.02320
G1 X120.464 Y118.151 E0.17146
G1 X109.114 Y117.980 E0.35590
G1 X108.554 Y117.909 E0.01771
G1 X108.020 Y117.725 E0.01771
G1 X107.397 Y117.326 E0.02320
G1 X106.902 Y116.775 E0.02320
G1 X106.572 Y116.113 E0.02320
G1 X106.430 Y115.383 E0.02333
G1 X105.987 Y104.958 E0.32716
G1 X106.432 Y95.275 E0.30394
G1 X106.669 Y94.349 E0.02995
M204 S1000
G1 X107.030 Y94.443 F6000.000
M204 S500
G1 F1800
G1 X107.354 Y93.932 E0.01896
G1 X107.791 Y93.526 E0.01870
G1 X108.314 Y93.241 E0.01870
G1 X108.897 Y93.094 E0.01882
G1 X119.742 Y92.908 E0.34010
G1 X126.269 Y93.130 E0.20477
G1 X126.842 Y93.332 E0.01906
G1 X127.345 Y93.673 E0.01906
G1 X127.745 Y94.130 E0.01906
G1 X128.017 Y94.674 E0.01906
G1 X128.148 Y95.440 E0.02437
G1 X128.148 Y115.408 E0.62607
G1 X128.089 Y115.925 E0.01633
G1 X127.920 Y116.414 E0.01621
G1 X127.569 Y116.952 E0.02012
G1 X127.091 Y117.374 E0.02000
G1 X126.518 Y117.653 E0.02000
G1 X125.887 Y117.771 E0.02012
G1 X120.469 Y117.774 E0.16985
G1 X109.125 Y117.603 E0.35573
G1 X108.631 Y117.540 E0.01562
G1 X108.161 Y117.375 E0.01562
G1 X107.624 Y117.024 E0.02012
G1 X107.202 Y116.545 E0.02000
G1 X106.923 Y115.972 E0.02000
G1 X106.806 Y115.345 E0.02000
G1 X106.364 Y104.964 E0.32578
G1 X106.808 Y95.303 E0.30321
G1 X107.015 Y94.501 E0.02599
M204 S1000
G1 E-1.68000 F2400.00000
G1 F4800
G1 X107.354 Y93.932 E-0.31447
G1 F4800
G1 X107.791 Y93.526 E-0.28331
G1 F4800
G1 X108.314 Y93.241 E-0.28331
G1 F4800
G1 X108.688 Y93.147 E-0.18291
G1 E-0.05600 F2400.00000
G1 Z0.800 F6000.000
G1 X118.984 Y95.843 F6000.000
G1 Z0.200 F6000.000
G1 E2.80000 F1200.00000
M204 S500
G1 F1800
G1 X118.984 Y95.455 E0.01218
G1 X118.230 Y95.455 E0.02365
G1 X118.230 Y95.673 E0.00686
G1 X117.476 Y95.706 E0.02367
G1 X117.476 Y95.455 E0.00788
G1 X116.721 Y95.455 E0.02365
G1 X116.721 Y95.782 E0.01028
G1 X115.967 Y95.914 E0.02400
G1 X115.967 Y95.455 E0.01439
G1 X115.213 Y95.455 E0.02365
G1 X115.213 Y96.131 E0.02120
G1 X114.977 Y96.200 E0.00773
G1 X114.459 Y96.415 E0.01757
G1 X114.459 Y95.455 E0.03010
G1 X113.705 Y95.455 E0.02365
G1 X113.705 Y96.771 E0.04127
G1 X113.122 Y97.093 E0.02087
G1 X112.951 Y97.212 E0.00655
G1 X112.951 Y95.455 E0.05509
G1 X112.196 Y95.455 E0.02365
G1 X112.196 Y97.757 E0.07219
G1 X111.442 Y98.437 E0.03185
G1 X111.442 Y95.455 E0.09352
G1 X110.688 Y95.455 E0.02365
G1 X110.688 Y99.307 E0.12078
G1 X110.170 Y100.038 E0.02808
G1 X109.934 Y100.464 E0.01529
G1 X109.934 Y95.455 E0.15707
G1 X109.180 Y95.455 E0.02365
G1 X109.180 Y102.209 E0.21179
G1 X108.974 Y102.925 E0.02334
G1 X108.802 Y103.934 E0.03210
G1 X108.741 Y104.990 E0.03315
G1 X108.801 Y106.058 E0.03354
G1 X108.972 Y107.064 E0.03201
G1 X109.180 Y107.790 E0.02369
G1 X109.180 Y115.227 E0.23317
G1 X109.934 Y115.227 E0.02365
G1 X109.934 Y109.536 E0.17843
G1 X110.170 Y109.962 E0.01529
G1 X110.688 Y110.693 E0.02808
G1 X110.688 Y115.227 E0.14214
G1 X111.442 Y115.227 E0.02365
G1 X111.442 Y111.563 E0.11489
G1 X112.196 Y112.243 E0.03185
G1 X112.196 Y115.227 E0.09356
G1 X112.951 Y115.227 E0.02365
G1 X112.951 Y112.788 E0.07646
G1 X113.121 Y112.907 E0.00650
G1 X113.705 Y113.229 E0.02092
G1 X113.705 Y115.227 E0.06263
G1 X114.459 Y115.227 E0.02365
G1 X114.459 Y113.585 E0.05147
G1 X114.977 Y113.800 E0.01757
G1 X115.213 Y113.869 E0.00773
G1 X115.213 Y114.507 E0.01999
M204 S1000
G1 E-1.68000 F2400.00000
G1 F4800
G1 X115.213 Y113.869 E-0.30288
G1 F4800
G1 X114.977 Y113.800 E-0.11705
G1 F4800
G1 X114.459 Y113.585 E-0.26616
G1 F4800
G1 X114.459 Y114.381 E-0.37791
G1 E-0.05600 F2400.00000
G1 Z0.800 F6000.000
G1 X120.492 Y115.397 F6000.000
G1 Z0.200 F6000.000
G1 E2.80000 F1200.00000
M204 S500
G1 F1800
G1 X120.492 Y114.327 E0.03354
G1 X121.246 Y114.327 E0.02365
G1 X121.246 Y115.227 E0.02822
G1 X122.001 Y115.227 E0.02365
G1 X122.001 Y114.327 E0.02822
G1 X122.448 Y114.327 E0.01404
G1 X122.724 Y113.988 E0.01368
G1 X122.329 Y112.094 E0.06068
G1 X122.044 Y110.331 E0.05599
G1 X122.001 Y109.953 E0.01190
G1 X122.001 Y104.683 E0.16526
G1 X122.755 Y104.683 E0.02365
G1 X122.755 Y115.227 E0.33060
G1 X123.509 Y115.227 E0.02365
G1 X123.509 Y104.683 E0.33060
G1 X124.263 Y104.683 E0.02365
G1 X124.263 Y115.227 E0.33060
G1 X125.017 Y115.227 E0.02365
G1 X125.017 Y104.683 E0.33060
G1 X125.771 Y104.683 E0.02365
G1 X125.771 Y115.397 E0.33592
M204 S1000
G1 E-1.68000 F2400.00000
G1 F4800
G1 X125.771 Y113.157 E-1.06400
G1 E-0.05600 F2400.00000
G1 Z0.800 F6000.000
G1 X125.771 Y103.861 F6000.000
G1 Z0.200 F6000.000
G1 E2.80000 F1200.00000
M204 S500
G1 F1800
G1 X125.771 Y95.455 E0.26358
G1 X125.017 Y95.455 E0.02365
G1 X125.017 Y103.691 E0.25826
G1 X124.263 Y103.691 E0.02365
G1 X124.263 Y95.455 E0.25826
G1 X123.509 Y95.455 E0.02365
G1 X123.509 Y103.691 E0.25826
G1 X122.755 Y103.691 E0.02365
G1 X122.755 Y95.455 E0.25826
G1 X122.001 Y95.455 E0.02365
G1 X122.001 Y95.673 E0.00686
G1 X121.246 Y95.673 E0.02365
G1 X121.246 Y95.455 E0.00686
G1 X120.492 Y95.455 E0.02365
G1 X120.492 Y95.673 E0.00686
G1 X119.738 Y95.673 E0.02365
G1 X119.738 Y95.285 E0.01218
M204 S1000
G1 E-1.68000 F2400.00000
G1 F4800
G1 X119.738 Y95.673 E-0.18451
G1 F4800
G1 X120.492 Y95.673 E-0.35823
G1 F4800
G1 X120.492 Y95.455 E-0.10391
G1 F4800
G1 X121.246 Y95.455 E-0.35823
G1 F4800
G1 X121.246 Y95.579 E-0.05913
G1 E-0.05600 F2400.00000
G1 Z0.800 F6000.000
G1 X122.001 Y98.875 F6000.000
G1 Z0.200 F6000.000
G1 E2.80000 F1200.00000
M204 S500
G1 F1800
G1 X122.001 Y103.861 E0.15634
M204 S1000
G1 E-1.68000 F2400.00000
G1 F4800
G1 X122.001 Y101.621 E-1.06400
G1 E-0.05600 F2400.00000
G1 Z0.800 F6000.000
G1 X118.216 Y104.533 F6000.000
G1 Z0.200 F6000.000
G1 E2.80000 F1200.00000
M204 S500
G1 F1800
G1 X118.257 Y105.000 E0.01471
G1 X118.216 Y105.467 E0.01469
G1 X118.095 Y105.920 E0.01470
G1 X117.896 Y106.345 E0.01470
G1 X117.628 Y106.729 E0.01470
G1 X117.296 Y107.060 E0.01470
G1 X116.912 Y107.329 E0.01469
G1 X116.487 Y107.527 E0.01471
G1 X116.034 Y107.649 E0.01470
G1 X115.568 Y107.689 E0.01469
G1 X115.100 Y107.648 E0.01471
G1 X114.648 Y107.527 E0.01469
G1 X114.223 Y107.329 E0.01471
G1 X113.839 Y107.060 E0.01469
G1 X113.507 Y106.729 E0.01471
G1 X113.238 Y106.345 E0.01469
G1 X113.040 Y105.920 E0.01469
G1 X112.919 Y105.467 E0.01471
G1 X112.878 Y105.000 E0.01469
G1 X112.919 Y104.533 E0.01471
G1 X113.040 Y104.080 E0.01470
G1 X113.238 Y103.656 E0.01469
G1 X113.507 Y103.271 E0.01471
G1 X113.839 Y102.940 E0.01469
G1 X114.223 Y102.671 E0.01470
G1 X114.648 Y102.473 E0.01469
G1 X115.101 Y102.351 E0.01471
G1 X115.567 Y102.311 E0.01469
G1 X116.034 Y102.351 E0.01469
G1 X116.487 Y102.473 E0.01471
G1 X116.912 Y102.671 E0.01469
G1 X117.296 Y102.940 E0.01470
G1 X117.628 Y103.271 E0.01470
G1 X117.896 Y103.655 E0.01469
G1 X118.095 Y104.080 E0.01470
G1 X118.200 Y104.475 E0.01282
M204 S1000
G1 X117.836 Y104.573 F6000.000
M204 S500
G1 F1800
G1 X117.878 Y105.000 E0.01347
G1 X117.843 Y105.401 E0.01262
G1 X117.739 Y105.790 E0.01263
G1 X117.569 Y106.155 E0.01263
G1 X117.338 Y106.485 E0.01263
G1 X117.053 Y106.770 E0.01263
G1 X116.723 Y107.001 E0.01262
G1 X116.358 Y107.172 E0.01264
G1 X115.969 Y107.276 E0.01263
G1 X115.568 Y107.311 E0.01262
G1 X115.166 Y107.276 E0.01264
G1 X114.777 Y107.172 E0.01262
G1 X114.412 Y107.001 E0.01264
G1 X114.082 Y106.770 E0.01262
G1 X113.797 Y106.485 E0.01264
G1 X113.566 Y106.155 E0.01262
G1 X113.396 Y105.790 E0.01263
G1 X113.292 Y105.401 E0.01264
G1 X113.257 Y105.000 E0.01262
G1 X113.292 Y104.599 E0.01264
G1 X113.396 Y104.210 E0.01263
G1 X113.566 Y103.845 E0.01262
G1 X113.797 Y103.515 E0.01264
G1 X114.082 Y103.230 E0.01262
G1 X114.412 Y102.999 E0.01264
G1 X114.777 Y102.829 E0.01262
G1 X115.166 Y102.724 E0.01264
G1 X115.567 Y102.689 E0.01262
G1 X115.968 Y102.724 E0.01262
G1 X116.358 Y102.829 E0.01264
G1 X116.723 Y102.999 E0.01262
G1 X117.053 Y103.230 E0.01263
G1 X117.338 Y103.515 E0.01263
G1 X117.569 Y103.844 E0.01262
G1 X117.739 Y104.210 E0.01263
G1 X117.821 Y104.515 E0.00990
M204 S1000
G1 X118.213 Y104.706 F6000.000
G1 E-1.68000 F2400.00000
G1 F4800
G1 X117.878 Y105.000 E-0.23224
G1 F4800
G1 X117.843 Y105.401 E-0.19122
G1 F4800
G1 X117.739 Y105.790 E-0.19136
G1 F4800
G1 X117.569 Y106.155 E-0.19133
G1 F4800
G1 X117.338 Y106.485 E-0.19132
G1 F4800
G1 X117.239 Y106.584 E-0.06653
G1 E-0.05600 F2400.00000
G1 Z0.800 F6000.000
G1 X121.508 Y96.719 F6000.000
G1 Z0.200 F6000.000
G1 E2.80000 F1200.00000
M204 S500
G1 F1800
G1 X121.304 Y97.697 E0.03134
G1 X121.009 Y99.522 E0.05794
G1 X120.800 Y101.338 E0.05732
G1 X120.674 Y103.162 E0.05732
G1 X120.632 Y105.016 E0.05816
G1 X120.674 Y106.838 E0.05715
G1 X120.802 Y108.685 E0.05803
G1 X121.009 Y110.480 E0.05665
G1 X121.300 Y112.283 E0.05728
G1 X121.508 Y113.281 E0.03197
G1 X118.084 Y113.281 E0.10737
G1 X117.141 Y113.228 E0.02961
G1 X116.222 Y113.072 E0.02922
G1 X115.334 Y112.816 E0.02898
G1 X114.475 Y112.460 E0.02917
G1 X113.662 Y112.011 E0.02911
G1 X112.902 Y111.471 E0.02923
G1 X112.212 Y110.855 E0.02900
G1 X111.596 Y110.166 E0.02898
G1 X111.056 Y109.405 E0.02925
G1 X110.611 Y108.600 E0.02883
G1 X110.251 Y107.733 E0.02945
G1 X109.995 Y106.841 E0.02909
G1 X109.839 Y105.927 E0.02910
G1 X109.787 Y105.000 E0.02910
G1 X109.839 Y104.073 E0.02910
G1 X109.995 Y103.159 E0.02910
G1 X110.251 Y102.267 E0.02910
G1 X110.608 Y101.405 E0.02923
G1 X111.056 Y100.595 E0.02904
G1 X111.594 Y99.837 E0.02912
G1 X112.210 Y99.148 E0.02899
G1 X112.902 Y98.529 E0.02913
G1 X113.663 Y97.988 E0.02927
G1 X114.475 Y97.540 E0.02907
G1 X115.334 Y97.184 E0.02917
G1 X116.225 Y96.927 E0.02906
G1 X117.141 Y96.772 E0.02913
G1 X118.084 Y96.719 E0.02961
G1 X121.448 Y96.719 E0.10549
M204 S1000
G1 X121.972 Y96.342 F6000.000
M204 S500
G1 F1800
G1 X121.675 Y97.766 E0.04562
G1 X121.382 Y99.573 E0.05741
G1 X121.175 Y101.372 E0.05677
G1 X121.051 Y103.179 E0.05678
G1 X121.010 Y105.016 E0.05762
G1 X121.051 Y106.821 E0.05661
G1 X121.178 Y108.650 E0.05749
G1 X121.382 Y110.428 E0.05611
G1 X121.671 Y112.214 E0.05674
G1 X121.972 Y113.658 E0.04624
G1 X118.073 Y113.658 E0.12224
G1 X117.099 Y113.603 E0.03061
G1 X116.138 Y113.440 E0.03055
G1 X115.210 Y113.173 E0.03030
G1 X114.311 Y112.800 E0.03049
G1 X113.461 Y112.331 E0.03044
G1 X112.666 Y111.767 E0.03056
G1 X111.945 Y111.122 E0.03032
G1 X111.301 Y110.401 E0.03030
G1 X110.737 Y109.606 E0.03058
G1 X110.271 Y108.765 E0.03016
G1 X109.895 Y107.858 E0.03078
G1 X109.626 Y106.925 E0.03042
G1 X109.464 Y105.969 E0.03042
G1 X109.410 Y105.000 E0.03042
G1 X109.464 Y104.031 E0.03042
G1 X109.626 Y103.075 E0.03042
G1 X109.895 Y102.142 E0.03042
G1 X110.268 Y101.242 E0.03056
G1 X110.737 Y100.394 E0.03037
G1 X111.298 Y99.602 E0.03044
G1 X111.943 Y98.881 E0.03031
G1 X112.667 Y98.233 E0.03045
G1 X113.462 Y97.668 E0.03060
G1 X114.311 Y97.200 E0.03039
G1 X115.210 Y96.828 E0.03049
G1 X116.141 Y96.559 E0.03039
G1 X117.099 Y96.397 E0.03046
G1 X118.073 Y96.342 E0.03061
G1 X121.912 Y96.342 E0.12036
M204 S1000
G1 X121.728 Y96.659 F6000.000
G1 X121.237 Y97.464 F6000.000
M204 S500
G1 F1800
G1 X120.775 Y97.002 E0.02063
G1 X120.238 Y97.002 E0.01695
G1 X121.006 Y97.769 E0.03428
G1 X120.931 Y98.231 E0.01478
G1 X119.702 Y97.002 E0.05490
G1 X119.165 Y97.002 E0.01695
G1 X120.856 Y98.693 E0.07553
G1 X120.781 Y99.156 E0.01478
G1 X118.628 Y97.002 E0.09616
G1 X118.091 Y97.002 E0.01695
G1 X120.712 Y99.623 E0.11704
G1 X120.657 Y100.105 E0.01530
G1 X117.582 Y97.030 E0.13726
G1 X117.084 Y97.068 E0.01579
G1 X120.601 Y100.586 E0.15706
G1 X120.546 Y101.068 E0.01530
G1 X116.625 Y97.146 E0.17508
G1 X116.177 Y97.236 E0.01441
G1 X120.501 Y101.560 E0.19305
G1 X120.466 Y102.062 E0.01590
G1 X115.760 Y97.356 E0.21012
G1 X115.351 Y97.483 E0.01354
G1 X120.432 Y102.564 E0.22685
G1 X120.397 Y103.067 E0.01590
G1 X114.971 Y97.640 E0.24226
G1 X114.592 Y97.798 E0.01296
G1 X120.382 Y103.588 E0.25849
G1 X120.370 Y104.113 E0.01658
G1 X114.246 Y97.989 E0.27340
G1 X113.900 Y98.180 E0.01247
G1 X120.358 Y104.638 E0.28832
G1 X120.353 Y105.170 E0.01679
G1 X113.578 Y98.395 E0.30247
G1 X113.264 Y98.618 E0.01216
G1 X120.366 Y105.720 E0.31705
G1 X120.378 Y106.269 E0.01735
G1 X118.460 Y104.351 E0.08564
G1 X118.495 Y104.484 E0.00434
G1 X118.538 Y104.966 E0.01527
G1 X120.391 Y106.819 E0.08274
G1 X120.429 Y107.394 E0.01820
G1 X118.500 Y105.465 E0.08613
G1 X118.394 Y105.896 E0.01401
G1 X120.469 Y107.971 E0.09265
G1 X120.509 Y108.548 E0.01826
G1 X118.239 Y106.278 E0.10133
G1 X118.142 Y106.487 E0.00726
G1 X118.047 Y106.623 E0.00525
G1 X120.571 Y109.146 E0.11267
G1 X120.640 Y109.753 E0.01928
G1 X117.822 Y106.934 E0.12584
G1 X117.553 Y107.203 E0.01199
G1 X120.710 Y110.360 E0.14095
G1 X120.805 Y110.992 E0.02017
G1 X117.251 Y107.437 E0.15869
G1 X117.054 Y107.575 E0.00757
G1 X116.916 Y107.639 E0.00482
G1 X120.909 Y111.632 E0.17827
G1 X121.012 Y112.273 E0.02048
G1 X116.544 Y107.805 E0.19949
G1 X116.121 Y107.918 E0.01384
G1 X121.150 Y112.947 E0.22454
G1 X121.161 Y112.998 E0.00164
G1 X120.664 Y112.998 E0.01568
G1 X115.633 Y107.967 E0.22461
G1 X115.057 Y107.929 E0.01822
G1 X120.127 Y112.998 E0.22634
G1 X119.590 Y112.998 E0.01695
G1 X110.204 Y103.613 E0.41904
G1 X110.289 Y103.160 E0.01454
G1 X112.639 Y105.510 E0.10493
G1 X112.600 Y104.934 E0.01822
G1 X110.409 Y102.743 E0.09784
G1 X110.532 Y102.329 E0.01363
G1 X112.649 Y104.447 E0.09454
G1 X112.763 Y104.023 E0.01384
G1 X110.689 Y101.949 E0.09259
