; generated by Slic3r Prusa Edition 1.39.1-beta1-prusa3d-win64 on 2018-06-26 at 14:40:56

; 

; external perimeters extrusion width = 0.60mm
; perimeters extrusion width = 0.43mm
; infill extrusion width = 0.70mm
; solid infill extrusion width = 0.70mm
; top infill extrusion width = 0.43mm
; support material extrusion width = 0.35mm
; first layer extrusion width = 0.42mm

M107
M115 U3.1.0 ; tell printer latest fw version
M201 X9000 Y9000 Z500 E10000 ; sets maximum accelerations, mm/sec^2
M203 X500 Y500 Z12 E120 ; sets maximum feedrates, mm/sec
M204 S1500 T1500 ; sets acceleration (S) and retract acceleration (T)
M205 X10 Y10 Z0.2 E2.5 ; sets the jerk limits, mm/sec
M205 S0 T0 ; sets the minimum extruding and travel feed rate, mm/sec
; Start G-Code sequence START
T?
M104 S208
M140 S60
M109 S208
M190 S60
G21 ; set units to millimeters
G90 ; use absolute coordinates
M83 ; use relative distances for extrusion
G28 W
G80
G92 E0.0
M203 E100
M92 E140
G1 Z0.250 F7200.000
G1 X50.0 E80.0  F1000.0
G1 X160.0 E20.0  F1000.0
G1 Z0.200 F7200.000
G1 X220.0 E13 F1000.0
G1 X240.0 E0 F1000.0
G1 E-0 F1000.0
G92 E0.0
M900 K0.47; Filament gcode
G21 ; set units to millimeters
G90 ; use absolute coordinates
M83 ; use relative distances for extrusion
;BEFORE_LAYER_CHANGE
;0.2


G1 Z0.200 F7200.000
;AFTER_LAYER_CHANGE
;0.2
G1 E-2.80000 F2400.00000
G1 Z0.800 F7200.000
G1 X98.273 Y72.059 F7200.000
G1 Z0.200 F7200.000
G1 E2.80000 F1200.00000
M204 S1000
G1 F1800
G1 X99.450 Y71.870 E0.03739
G1 X150.504 Y71.869 E1.60077
G1 X151.234 Y71.936 E0.02297
G1 X151.976 Y72.143 E0.02417
G1 X152.651 Y72.473 E0.02355
G1 X153.304 Y72.968 E0.02568
G1 X153.908 Y73.672 E0.02910
G1 X154.276 Y74.332 E0.02368
G1 X154.531 Y75.101 E0.02540
G1 X154.624 Y75.798 E0.02207
G1 X154.625 Y104.192 E0.89027
G1 X154.443 Y105.228 E0.03299
G1 X154.066 Y106.086 E0.02939
G1 X153.505 Y106.832 E0.02926
G1 X152.670 Y107.515 E0.03383
G1 X151.709 Y107.948 E0.03303
G1 X150.536 Y108.131 E0.03724
G1 X99.426 Y108.130 E1.60252
G1 X98.326 Y107.958 E0.03489
G1 X97.448 Y107.585 E0.02994
G1 X96.677 Y107.014 E0.03007
G1 X95.983 Y106.166 E0.03437
G1 X95.555 Y105.222 E0.03248
G1 X95.370 Y104.066 E0.03670
G1 X95.371 Y75.878 E0.88384
G1 X95.544 Y74.818 E0.03367
G1 X95.916 Y73.948 E0.02966
G1 X96.481 Y73.183 E0.02982
G1 X97.324 Y72.489 E0.03425
G1 X98.218 Y72.084 E0.03077
G1 X98.372 Y72.424 F7200.000
G1 F1800
G1 X99.458 Y72.247 E0.03451
G1 X150.504 Y72.246 E1.60051
G1 X151.166 Y72.307 E0.02084
G1 X151.836 Y72.493 E0.02182
G1 X152.451 Y72.793 E0.02145
G1 X153.049 Y73.246 E0.02349
G1 X153.604 Y73.895 E0.02679
G1 X153.939 Y74.500 E0.02170
G1 X154.167 Y75.201 E0.02310
G1 X154.249 Y75.834 E0.02002
G1 X154.250 Y104.156 E0.88800
G1 X154.083 Y105.114 E0.03050
G1 X153.740 Y105.896 E0.02678
G1 X153.231 Y106.572 E0.02652
G1 X152.454 Y107.205 E0.03143
G1 X151.597 Y107.588 E0.02943
G1 X150.530 Y107.754 E0.03387
G1 X99.439 Y107.753 E1.60194
G1 X98.429 Y107.596 E0.03203
G1 X97.632 Y107.256 E0.02716
G1 X96.937 Y106.740 E0.02716
G1 X96.295 Y105.954 E0.03182
G1 X95.914 Y105.105 E0.02917
G1 X95.746 Y104.050 E0.03349
G1 X95.748 Y75.898 E0.88271
G1 X95.906 Y74.924 E0.03093
G1 X96.243 Y74.135 E0.02690
G1 X96.756 Y73.441 E0.02707
G1 X97.535 Y72.803 E0.03155
G1 X98.317 Y72.449 E0.02693
G1 X98.470 Y72.790 F7200.000
G1 F1800
G1 X99.467 Y72.624 E0.03168
G1 X150.504 Y72.623 E1.60023
G1 X151.096 Y72.677 E0.01863
G1 X151.698 Y72.844 E0.01961
G1 X152.250 Y73.112 E0.01922
G1 X152.791 Y73.521 E0.02128
G1 X153.299 Y74.117 E0.02455
G1 X153.598 Y74.661 E0.01946
G1 X153.802 Y75.296 E0.02092
G1 X153.873 Y75.869 E0.01809
G1 X153.874 Y104.126 E0.88598
G1 X153.722 Y105.005 E0.02798
G1 X153.414 Y105.707 E0.02403
G1 X152.957 Y106.313 E0.02380
G1 X152.247 Y106.890 E0.02871
G1 X151.488 Y107.227 E0.02602
G1 X150.523 Y107.377 E0.03062
G1 X99.450 Y107.377 E1.60135
G1 X98.528 Y107.232 E0.02928
G1 X97.816 Y106.927 E0.02427
G1 X97.195 Y106.465 E0.02427
G1 X96.610 Y105.747 E0.02906
G1 X96.275 Y104.996 E0.02579
G1 X96.123 Y104.039 E0.03038
G1 X96.124 Y75.916 E0.88175
G1 X96.269 Y75.025 E0.02830
G1 X96.573 Y74.318 E0.02415
G1 X97.033 Y73.697 E0.02421
G1 X97.747 Y73.115 E0.02891
G1 X98.416 Y72.815 E0.02296
G1 E-1.68000 F2400.00000
G1 F5760
G1 X99.467 Y72.624 E-0.42290
G1 F5760
G1 X101.086 Y72.624 E-0.64110
G1 E-0.05600 F2400.00000
G1 Z0.800 F7200.000
G1 X104.413 Y75.587 F7200.000
G1 Z0.200 F7200.000
G1 E2.80000 F1200.00000
G1 F1800
G1 X104.413 Y98.751 E0.72630
G1 X104.488 Y99.178 E0.01357
G1 X104.717 Y99.575 E0.01438
G1 X104.912 Y99.769 E0.00861
G1 X105.152 Y99.930 E0.00908
G1 X105.535 Y100.066 E0.01273
G1 X105.774 Y100.087 E0.00754
G1 X144.230 Y100.087 E1.20576
G1 X144.488 Y100.060 E0.00812
G1 X144.870 Y99.920 E0.01276
G1 X145.125 Y99.740 E0.00977
G1 X145.412 Y99.391 E0.01419
G1 X145.560 Y98.988 E0.01346
G1 X145.587 Y98.730 E0.00812
G1 X145.587 Y75.587 E0.72564
G1 X150.474 Y75.587 E0.15324
G1 X150.571 Y75.596 E0.00305
G1 X150.705 Y75.644 E0.00447
G1 X150.856 Y75.795 E0.00667
G1 X150.902 Y75.921 E0.00421
G1 X150.913 Y76.029 E0.00341
G1 X150.913 Y103.974 E0.87621
G1 X150.904 Y104.072 E0.00307
G1 X150.856 Y104.205 E0.00445
G1 X150.705 Y104.356 E0.00667
G1 X150.572 Y104.404 E0.00445
G1 X150.474 Y104.413 E0.00307
G1 X99.526 Y104.413 E1.59745
G1 X99.428 Y104.404 E0.00307
G1 X99.295 Y104.356 E0.00445
G1 X99.144 Y104.205 E0.00667
G1 X99.096 Y104.072 E0.00445
G1 X99.087 Y103.974 E0.00307
G1 X99.096 Y75.929 E0.87935
G1 X99.144 Y75.795 E0.00447
G1 X99.236 Y75.685 E0.00447
G1 X99.360 Y75.614 E0.00447
G1 X99.526 Y75.587 E0.00528
G1 X104.353 Y75.587 E0.15136
G1 X104.790 Y75.210 F7200.000
G1 F1800
G1 X104.790 Y98.718 E0.73709
G1 X104.848 Y99.047 E0.01045
G1 X105.019 Y99.343 E0.01074
G1 X105.152 Y99.476 E0.00589
G1 X105.323 Y99.590 E0.00645
G1 X105.616 Y99.695 E0.00975
G1 X105.791 Y99.710 E0.00550
G1 X144.211 Y99.710 E1.20463
G1 X144.402 Y99.690 E0.00603
G1 X144.693 Y99.583 E0.00972
G1 X144.866 Y99.461 E0.00662
G1 X145.080 Y99.201 E0.01059
G1 X145.190 Y98.902 E0.00997
G1 X145.210 Y98.711 E0.00603
G1 X145.210 Y75.210 E0.73685
G1 X150.491 Y75.210 E0.16558
G1 X150.637 Y75.223 E0.00460
G1 X150.895 Y75.317 E0.00859
G1 X151.007 Y75.395 E0.00431
G1 X151.183 Y75.605 E0.00859
G1 X151.274 Y75.853 E0.00827
G1 X151.290 Y76.010 E0.00496
G1 X151.290 Y103.991 E0.87731
G1 X151.277 Y104.138 E0.00462
G1 X151.183 Y104.395 E0.00857
G1 X151.104 Y104.508 E0.00433
G1 X150.894 Y104.684 E0.00859
G1 X150.638 Y104.777 E0.00857
G1 X150.491 Y104.790 E0.00462
G1 X99.509 Y104.790 E1.59849
G1 X99.362 Y104.777 E0.00462
G1 X99.105 Y104.683 E0.00857
G1 X98.992 Y104.604 E0.00433
G1 X98.816 Y104.394 E0.00859
G1 X98.723 Y104.138 E0.00857
G1 X98.710 Y103.991 E0.00462
G1 X98.710 Y76.009 E0.87734
G1 X98.723 Y75.863 E0.00460
G1 X98.758 Y75.730 E0.00431
G1 X98.895 Y75.493 E0.00859
G1 X99.105 Y75.317 E0.00859
G1 X99.363 Y75.223 E0.00859
G1 X104.730 Y75.210 E0.16828
G1 X104.592 Y75.558 F7200.000
G1 X104.300 Y76.267 F7200.000
G1 F1800
G1 X103.903 Y75.871 E0.01766
G1 X103.368 Y75.872 E0.01686
G1 X104.130 Y76.633 E0.03394
G1 X104.130 Y77.169 E0.01689
G1 X102.833 Y75.873 E0.05779
G1 X102.298 Y75.873 E0.01686
G1 X104.130 Y77.705 E0.08163
G1 X104.130 Y78.241 E0.01689
G1 X101.763 Y75.874 E0.10547
G1 X101.228 Y75.875 E0.01686
G1 X104.130 Y78.777 E0.12932
G1 X104.130 Y79.313 E0.01689
G1 X100.693 Y75.876 E0.15316
G1 X100.158 Y75.877 E0.01686
G1 X104.130 Y79.849 E0.17700
G1 X104.130 Y80.385 E0.01689
G1 X99.623 Y75.878 E0.20084
G1 X99.438 Y75.893 E0.00585
G1 X99.385 Y75.956 E0.00260
G1 X99.370 Y76.048 E0.00295
G1 X99.370 Y76.161 E0.00353
G1 X104.130 Y80.921 E0.21214
G1 X104.130 Y81.457 E0.01689
G1 X99.370 Y76.697 E0.21214
G1 X99.370 Y77.232 E0.01689
G1 X104.130 Y81.993 E0.21214
G1 X104.130 Y82.529 E0.01689
G1 X99.370 Y77.768 E0.21214
G1 X99.370 Y78.304 E0.01689
G1 X104.130 Y83.065 E0.21214
G1 X104.130 Y83.601 E0.01689
G1 X99.370 Y78.840 E0.21214
G1 X99.370 Y79.376 E0.01689
G1 X104.130 Y84.137 E0.21214
G1 X104.130 Y84.672 E0.01689
G1 X99.370 Y79.912 E0.21214
G1 X99.370 Y80.448 E0.01689
G1 X104.130 Y85.208 E0.21214
G1 X104.130 Y85.744 E0.01689
G1 X99.370 Y80.984 E0.21214
G1 X99.370 Y81.520 E0.01689
G1 X104.130 Y86.280 E0.21214
G1 X104.130 Y86.816 E0.01689
G1 X99.370 Y82.056 E0.21214
G1 X99.370 Y82.592 E0.01689
G1 X104.130 Y87.352 E0.21214
G1 X104.130 Y87.888 E0.01689
G1 X99.370 Y83.128 E0.21214
G1 X99.370 Y83.664 E0.01689
G1 X104.130 Y88.424 E0.21214
G1 X104.130 Y88.960 E0.01689
G1 X99.370 Y84.200 E0.21214
G1 X99.370 Y84.736 E0.01689
G1 X104.130 Y89.496 E0.21214
G1 X104.130 Y90.032 E0.01689
G1 X99.370 Y85.272 E0.21214
G1 X99.370 Y85.808 E0.01689
G1 X104.130 Y90.568 E0.21214
G1 X104.130 Y91.104 E0.01689
G1 X99.370 Y86.343 E0.21214
G1 X99.370 Y86.879 E0.01689
G1 X104.130 Y91.640 E0.21214
G1 X104.130 Y92.176 E0.01689
G1 X99.370 Y87.415 E0.21214
G1 X99.370 Y87.951 E0.01689
G1 X104.130 Y92.712 E0.21214
G1 X104.130 Y93.248 E0.01689
G1 X99.370 Y88.487 E0.21214
G1 X99.370 Y89.023 E0.01689
G1 X104.130 Y93.783 E0.21214
G1 X104.130 Y94.319 E0.01689
G1 X99.370 Y89.559 E0.21214
G1 X99.370 Y90.095 E0.01689
G1 X104.130 Y94.855 E0.21214
G1 X104.130 Y95.391 E0.01689
G1 X99.370 Y90.631 E0.21214
G1 X99.370 Y91.167 E0.01689
G1 X104.130 Y95.927 E0.21214
G1 X104.130 Y96.463 E0.01689
G1 X99.370 Y91.703 E0.21214
G1 X99.370 Y92.239 E0.01689
G1 X104.130 Y96.999 E0.21214
G1 X104.130 Y97.535 E0.01689
G1 X99.370 Y92.775 E0.21214
G1 X99.370 Y93.311 E0.01689
G1 X104.130 Y98.071 E0.21214
G1 X104.130 Y98.607 E0.01689
G1 X99.370 Y93.847 E0.21214
G1 X99.370 Y94.383 E0.01689
G1 X104.209 Y99.221 E0.21563
G1 X105.253 Y100.266 F7200.000
G1 F1800
G1 X109.117 Y104.130 E0.17220
G1 X109.653 Y104.130 E0.01689
G1 X105.893 Y100.370 E0.16757
G1 X106.429 Y100.370 E0.01689
G1 X110.189 Y104.130 E0.16757
G1 X110.725 Y104.130 E0.01689
G1 X106.965 Y100.370 E0.16757
G1 X107.501 Y100.370 E0.01689
G1 X111.261 Y104.130 E0.16757
G1 X111.797 Y104.130 E0.01689
G1 X108.037 Y100.370 E0.16757
G1 X108.573 Y100.370 E0.01689
G1 X112.333 Y104.130 E0.16757
G1 X112.869 Y104.130 E0.01689
G1 X109.109 Y100.370 E0.16757
G1 X109.645 Y100.370 E0.01689
G1 X113.405 Y104.130 E0.16757
G1 X113.941 Y104.130 E0.01689
G1 X110.181 Y100.370 E0.16757
G1 X110.717 Y100.370 E0.01689
G1 X114.477 Y104.130 E0.16757
G1 X115.013 Y104.130 E0.01689
G1 X111.252 Y100.370 E0.16757
G1 X111.788 Y100.370 E0.01689
G1 X115.549 Y104.130 E0.16757
G1 X116.085 Y104.130 E0.01689
G1 X112.324 Y100.370 E0.16757
G1 X112.860 Y100.370 E0.01689
G1 X116.621 Y104.130 E0.16757
G1 X117.157 Y104.130 E0.01689
G1 X113.396 Y100.370 E0.16757
G1 X113.932 Y100.370 E0.01689
G1 X117.692 Y104.130 E0.16757
G1 X118.228 Y104.130 E0.01689
G1 X114.468 Y100.370 E0.16757
G1 X115.004 Y100.370 E0.01689
G1 X118.764 Y104.130 E0.16757
G1 X119.300 Y104.130 E0.01689
G1 X115.540 Y100.370 E0.16757
G1 X116.076 Y100.370 E0.01689
G1 X119.836 Y104.130 E0.16757
G1 X120.372 Y104.130 E0.01689
G1 X116.612 Y100.370 E0.16757
G1 X117.148 Y100.370 E0.01689
G1 X120.908 Y104.130 E0.16757
G1 X121.444 Y104.130 E0.01689
G1 X117.684 Y100.370 E0.16757
G1 X118.220 Y100.370 E0.01689
G1 X121.980 Y104.130 E0.16757
G1 X122.516 Y104.130 E0.01689
G1 X118.756 Y100.370 E0.16757
G1 X119.292 Y100.370 E0.01689
G1 X123.052 Y104.130 E0.16757
G1 X123.588 Y104.130 E0.01689
G1 X119.828 Y100.370 E0.16757
G1 X120.363 Y100.370 E0.01689
G1 X124.124 Y104.130 E0.16757
G1 X124.660 Y104.130 E0.01689
G1 X120.899 Y100.370 E0.16757
G1 X121.435 Y100.370 E0.01689
G1 X125.196 Y104.130 E0.16757
G1 X125.732 Y104.130 E0.01689
G1 X121.971 Y100.370 E0.16757
G1 X122.507 Y100.370 E0.01689
G1 X126.268 Y104.130 E0.16757
G1 X126.803 Y104.130 E0.01689
G1 X123.043 Y100.370 E0.16757
G1 X123.579 Y100.370 E0.01689
G1 X127.339 Y104.130 E0.16757
G1 X127.875 Y104.130 E0.01689
G1 X124.115 Y100.370 E0.16757
G1 X124.651 Y100.370 E0.01689
G1 X128.411 Y104.130 E0.16757
G1 X128.947 Y104.130 E0.01689
G1 X125.187 Y100.370 E0.16757
G1 X125.723 Y100.370 E0.01689
G1 X129.483 Y104.130 E0.16757
G1 X130.019 Y104.130 E0.01689
G1 X126.259 Y100.370 E0.16757
G1 X126.795 Y100.370 E0.01689
G1 X130.555 Y104.130 E0.16757
G1 X131.091 Y104.130 E0.01689
G1 X127.331 Y100.370 E0.16757
G1 X127.867 Y100.370 E0.01689
G1 X131.627 Y104.130 E0.16757
G1 X132.163 Y104.130 E0.01689
G1 X128.403 Y100.370 E0.16757
G1 X128.939 Y100.370 E0.01689
G1 X132.699 Y104.130 E0.16757
G1 X133.235 Y104.130 E0.01689
G1 X129.474 Y100.370 E0.16757
G1 X130.010 Y100.370 E0.01689
G1 X133.771 Y104.130 E0.16757
G1 X134.307 Y104.130 E0.01689
G1 X130.546 Y100.370 E0.16757
G1 X131.082 Y100.370 E0.01689
G1 X134.843 Y104.130 E0.16757
G1 X135.379 Y104.130 E0.01689
G1 X131.618 Y100.370 E0.16757
G1 X132.154 Y100.370 E0.01689
G1 X135.914 Y104.130 E0.16757
G1 X136.450 Y104.130 E0.01689
G1 X132.690 Y100.370 E0.16757
G1 X133.226 Y100.370 E0.01689
G1 X136.986 Y104.130 E0.16757
G1 X137.522 Y104.130 E0.01689
G1 X133.762 Y100.370 E0.16757
G1 X134.298 Y100.370 E0.01689
G1 X138.058 Y104.130 E0.16757
G1 X138.594 Y104.130 E0.01689
G1 X134.834 Y100.370 E0.16757
G1 X135.370 Y100.370 E0.01689
G1 X139.130 Y104.130 E0.16757
G1 X139.666 Y104.130 E0.01689
G1 X135.906 Y100.370 E0.16757
G1 X136.442 Y100.370 E0.01689
G1 X140.202 Y104.130 E0.16757
G1 X140.738 Y104.130 E0.01689
G1 X136.978 Y100.370 E0.16757
G1 X137.514 Y100.370 E0.01689
G1 X141.274 Y104.130 E0.16757
G1 X141.810 Y104.130 E0.01689
G1 X138.050 Y100.370 E0.16757
G1 X138.586 Y100.370 E0.01689
G1 X142.346 Y104.130 E0.16757
G1 X142.882 Y104.130 E0.01689
G1 X139.121 Y100.370 E0.16757
G1 X139.657 Y100.370 E0.01689
G1 X143.418 Y104.130 E0.16757
G1 X143.954 Y104.130 E0.01689
G1 X140.193 Y100.370 E0.16757
G1 X140.729 Y100.370 E0.01689
G1 X144.490 Y104.130 E0.16757
G1 X145.025 Y104.130 E0.01689
G1 X141.265 Y100.370 E0.16757
G1 X141.801 Y100.370 E0.01689
G1 X145.561 Y104.130 E0.16757
G1 X146.097 Y104.130 E0.01689
G1 X142.337 Y100.370 E0.16757
G1 X142.873 Y100.370 E0.01689
G1 X146.633 Y104.130 E0.16757
G1 X147.169 Y104.130 E0.01689
G1 X143.409 Y100.370 E0.16757
G1 X143.945 Y100.370 E0.01689
G1 X147.705 Y104.130 E0.16757
G1 X148.241 Y104.130 E0.01689
G1 X144.459 Y100.348 E0.16856
G1 X144.552 Y100.338 E0.00297
G1 X144.869 Y100.222 E0.01062
G1 X148.777 Y104.130 E0.17417
G1 X149.313 Y104.130 E0.01689
G1 X145.209 Y100.027 E0.18287
G1 X145.319 Y99.949 E0.00422
G1 X145.477 Y99.758 E0.00782
G1 X149.849 Y104.130 E0.19485
G1 X150.385 Y104.130 E0.01689
G1 X145.695 Y99.441 E0.20898
G1 X145.838 Y99.048 E0.01317
G1 X150.630 Y103.839 E0.21353
G1 X150.630 Y103.303 E0.01689
G1 X145.870 Y98.543 E0.21214
G1 X145.870 Y98.007 E0.01689
G1 X150.630 Y102.768 E0.21214
G1 X150.630 Y102.232 E0.01689
G1 X145.870 Y97.471 E0.21214
G1 X145.870 Y96.935 E0.01689
G1 X150.630 Y101.696 E0.21214
G1 X150.630 Y101.160 E0.01689
G1 X145.870 Y96.399 E0.21214
G1 X145.870 Y95.864 E0.01689
G1 X150.630 Y100.624 E0.21214
G1 X150.630 Y100.088 E0.01689
G1 X145.870 Y95.328 E0.21214
G1 X145.870 Y94.792 E0.01689
G1 X150.630 Y99.552 E0.21214
G1 X150.630 Y99.016 E0.01689
G1 X145.870 Y94.256 E0.21214
G1 X145.870 Y93.720 E0.01689
G1 X150.630 Y98.480 E0.21214
G1 X150.630 Y97.944 E0.01689
G1 X145.870 Y93.184 E0.21214
G1 X145.870 Y92.648 E0.01689
G1 X150.630 Y97.408 E0.21214
G1 X150.630 Y96.872 E0.01689
G1 X145.870 Y92.112 E0.21214
G1 X145.870 Y91.576 E0.01689
G1 X150.630 Y96.336 E0.21214
G1 X150.630 Y95.800 E0.01689
G1 X145.870 Y91.040 E0.21214
G1 X145.870 Y90.504 E0.01689
G1 X150.630 Y95.264 E0.21214
G1 X150.630 Y94.728 E0.01689
G1 X145.870 Y89.968 E0.21214
G1 X145.870 Y89.432 E0.01689
G1 X150.630 Y94.192 E0.21214
G1 X150.630 Y93.657 E0.01689
G1 X145.870 Y88.896 E0.21214
G1 X145.870 Y88.360 E0.01689
G1 X150.630 Y93.121 E0.21214
G1 X150.630 Y92.585 E0.01689
G1 X145.870 Y87.824 E0.21214
G1 X145.870 Y87.288 E0.01689
G1 X150.630 Y92.049 E0.21214
G1 X150.630 Y91.513 E0.01689
G1 X145.870 Y86.753 E0.21214
G1 X145.870 Y86.217 E0.01689
G1 X150.630 Y90.977 E0.21214
G1 X150.630 Y90.441 E0.01689
G1 X145.870 Y85.681 E0.21214
G1 X145.870 Y85.145 E0.01689
G1 X150.630 Y89.905 E0.21214
G1 X150.630 Y89.369 E0.01689
G1 X145.870 Y84.609 E0.21214
G1 X145.870 Y84.073 E0.01689
G1 X150.630 Y88.833 E0.21214
G1 X150.630 Y88.297 E0.01689
G1 X145.870 Y83.537 E0.21214
G1 X145.870 Y83.001 E0.01689
G1 X150.630 Y87.761 E0.21214
