; generated by Slic3r Prusa Edition 1.39.1-beta1-prusa3d-win64 on 2018-06-26 at 17:28:53

; 

; external perimeters extrusion width = 0.45mm
; perimeters extrusion width = 0.45mm
; infill extrusion width = 0.45mm
; solid infill extrusion width = 0.45mm
; top infill extrusion width = 0.40mm
; support material extrusion width = 0.35mm
; first layer extrusion width = 0.42mm

M107
M115 U3.1.0 ; tell printer latest fw version
M201 X9000 Y9000 Z500 E10000 ; sets maximum accelerations, mm/sec^2
M203 X500 Y500 Z12 E120 ; sets maximum feedrates, mm/sec
M204 S1500 T1500 ; sets acceleration (S) and retract acceleration (T)
M205 X10 Y10 Z0.2 E2.5 ; sets the jerk limits, mm/sec
M205 S0 T0 ; sets the minimum extruding and travel feed rate, mm/sec
; Start G-Code sequence START
T?
M104 S255
M140 S100
M109 S255
M190 S100
G21 ; set units to millimeters
G90 ; use absolute coordinates
M83 ; use relative distances for extrusion
G28 W
G80
G92 E0.0
M203 E100
M92 E140
G1 Z0.250 F7200.000
G1 X50.0 E80.0  F1000.0
G1 X160.0 E20.0  F1000.0
G1 Z0.200 F7200.000
G1 X220.0 E13 F1000.0
G1 X240.0 E0 F1000.0
G1 E-0 F1000.0
G92 E0.0
M900 K0.47; Filament gcode
G21 ; set units to millimeters
G90 ; use absolute coordinates
M83 ; use relative distances for extrusion
;BEFORE_LAYER_CHANGE
;0.2


G1 Z0.200 F6000.000
;AFTER_LAYER_CHANGE
;0.2
G1 E-2.80000 F2400.00000
G1 Z0.800 F6000.000
G1 X109.459 Y95.041 F6000.000
G1 Z0.200 F6000.000
G1 E2.80000 F1200.00000
M204 S500
G1 F1800
G1 X140.541 Y95.041 E0.97456
G1 X140.541 Y75.159 E0.62339
G1 X140.792 Y74.050 E0.03565
G1 X141.361 Y73.047 E0.03614
G1 X142.192 Y72.249 E0.03613
G1 X143.180 Y71.743 E0.03482
G1 X143.921 Y71.489 E0.02456
G1 X144.942 Y71.229 E0.03301
G1 X145.999 Y71.077 E0.03349
G1 X146.630 Y71.042 E0.01981
G1 X150.648 Y71.043 E0.12600
G1 X151.454 Y71.134 E0.02542
G1 X152.224 Y71.351 E0.02508
G1 X153.179 Y71.824 E0.03343
G1 X153.673 Y72.189 E0.01924
G1 X154.136 Y72.625 E0.01994
G1 X154.757 Y73.457 E0.03254
G1 X155.162 Y74.309 E0.02960
G1 X155.375 Y75.090 E0.02538
G1 X155.456 Y75.835 E0.02350
G1 X155.455 Y104.171 E0.88847
G1 X155.389 Y104.833 E0.02084
G1 X155.243 Y105.458 E0.02013
G1 X154.711 Y106.623 E0.04015
G1 X154.323 Y107.158 E0.02073
G1 X153.880 Y107.632 E0.02033
G1 X153.035 Y108.262 E0.03305
G1 X151.958 Y108.742 E0.03699
G1 X151.290 Y108.896 E0.02147
G1 X150.587 Y108.959 E0.02214
G1 X99.417 Y108.959 E1.60441
G1 X98.723 Y108.898 E0.02185
G1 X98.040 Y108.742 E0.02195
G1 X96.892 Y108.219 E0.03956
G1 X96.345 Y107.826 E0.02111
G1 X95.861 Y107.372 E0.02082
G1 X95.226 Y106.513 E0.03347
G1 X94.891 Y105.831 E0.02385
G1 X94.669 Y105.127 E0.02313
G1 X94.541 Y104.104 E0.03232
G1 X94.542 Y75.885 E0.88481
G1 X94.610 Y75.172 E0.02245
G1 X94.775 Y74.493 E0.02189
G1 X95.175 Y73.577 E0.03137
G1 X95.746 Y72.759 E0.03127
G1 X96.260 Y72.246 E0.02277
G1 X96.851 Y71.806 E0.02310
G1 X97.863 Y71.318 E0.03522
G1 X98.558 Y71.131 E0.02254
G1 X99.282 Y71.047 E0.02288
G1 X103.386 Y71.042 E0.12866
G1 X104.360 Y71.114 E0.03062
G1 X105.082 Y71.234 E0.02297
G1 X106.139 Y71.504 E0.03420
G1 X106.821 Y71.739 E0.02261
G1 X107.472 Y72.034 E0.02241
G1 X108.423 Y72.794 E0.03818
G1 X109.088 Y73.777 E0.03721
G1 X109.447 Y75.018 E0.04050
G1 X109.459 Y94.981 E0.62592
M204 S1000
G1 X109.082 Y95.418 F6000.000
M204 S500
G1 F1800
G1 X140.918 Y95.418 E0.99820
G1 X140.918 Y75.179 E0.63457
G1 X141.134 Y74.211 E0.03109
G1 X141.675 Y73.258 E0.03436
G1 X142.430 Y72.543 E0.03262
G1 X143.337 Y72.086 E0.03185
G1 X144.035 Y71.849 E0.02311
G1 X145.025 Y71.597 E0.03202
G1 X146.028 Y71.453 E0.03178
G1 X146.635 Y71.419 E0.01906
G1 X150.638 Y71.420 E0.12551
G1 X151.368 Y71.501 E0.02303
G1 X152.074 Y71.698 E0.02297
G1 X152.969 Y72.138 E0.03128
G1 X153.440 Y72.485 E0.01834
G1 X153.865 Y72.887 E0.01834
G1 X154.442 Y73.666 E0.03040
G1 X154.813 Y74.454 E0.02732
G1 X155.007 Y75.173 E0.02335
G1 X155.080 Y75.864 E0.02180
G1 X155.079 Y104.144 E0.88669
G1 X155.019 Y104.759 E0.01938
G1 X154.880 Y105.354 E0.01915
G1 X154.394 Y106.418 E0.03667
G1 X154.040 Y106.909 E0.01901
G1 X153.617 Y107.361 E0.01940
G1 X152.828 Y107.946 E0.03080
G1 X151.856 Y108.378 E0.03335
G1 X151.218 Y108.525 E0.02050
G1 X150.579 Y108.582 E0.02014
G1 X99.425 Y108.582 E1.60388
G1 X98.770 Y108.523 E0.02064
G1 X98.144 Y108.379 E0.02012
G1 X97.067 Y107.884 E0.03716
G1 X96.577 Y107.529 E0.01899
G1 X96.132 Y107.110 E0.01916
G1 X95.541 Y106.305 E0.03132
G1 X95.237 Y105.679 E0.02180
G1 X95.034 Y105.031 E0.02129
G1 X94.918 Y104.093 E0.02965
G1 X94.919 Y75.911 E0.88364
G1 X94.980 Y75.247 E0.02089
G1 X95.138 Y74.598 E0.02095
G1 X95.496 Y73.776 E0.02812
G1 X96.025 Y73.013 E0.02910
G1 X96.516 Y72.522 E0.02178
G1 X97.061 Y72.120 E0.02124
G1 X97.978 Y71.678 E0.03193
G1 X98.642 Y71.499 E0.02154
G1 X99.314 Y71.423 E0.02122
G1 X103.379 Y71.419 E0.12745
G1 X104.307 Y71.488 E0.02917
G1 X104.997 Y71.602 E0.02193
G1 X106.038 Y71.868 E0.03371
G1 X106.673 Y72.086 E0.02105
G1 X107.294 Y72.367 E0.02137
G1 X108.164 Y73.068 E0.03502
G1 X108.758 Y73.961 E0.03363
G1 X109.069 Y75.045 E0.03535
G1 X109.082 Y95.358 E0.63691
M204 S1000
G1 X108.705 Y95.795 F6000.000
M204 S500
G1 F1800
G1 X141.295 Y95.795 E1.02184
G1 X141.295 Y75.199 E0.64576
G1 X141.477 Y74.370 E0.02663
G1 X141.955 Y73.511 E0.03080
G1 X142.668 Y72.836 E0.03078
G1 X143.492 Y72.430 E0.02881
G1 X144.149 Y72.209 E0.02172
G1 X145.108 Y71.965 E0.03104
G1 X146.057 Y71.829 E0.03007
G1 X146.640 Y71.796 E0.01830
G1 X150.628 Y71.797 E0.12503
G1 X151.283 Y71.869 E0.02068
G1 X151.925 Y72.045 E0.02085
G1 X152.760 Y72.452 E0.02913
G1 X153.189 Y72.767 E0.01670
G1 X153.593 Y73.149 E0.01743
G1 X154.127 Y73.874 E0.02822
G1 X154.464 Y74.597 E0.02502
G1 X154.638 Y75.255 E0.02133
G1 X154.703 Y75.893 E0.02011
G1 X154.703 Y104.117 E0.88496
G1 X154.649 Y104.686 E0.01790
G1 X154.517 Y105.250 E0.01816
G1 X154.077 Y106.212 E0.03318
G1 X153.741 Y106.679 E0.01804
G1 X153.354 Y107.090 E0.01770
G1 X152.621 Y107.630 E0.02856
G1 X151.752 Y108.015 E0.02978
G1 X151.171 Y108.151 E0.01871
G1 X150.570 Y108.205 E0.01892
G1 X99.433 Y108.205 E1.60336
G1 X98.841 Y108.153 E0.01863
G1 X98.248 Y108.016 E0.01911
G1 X97.274 Y107.568 E0.03361
G1 X96.809 Y107.231 E0.01802
G1 X96.404 Y106.848 E0.01746
G1 X95.856 Y106.097 E0.02916
G1 X95.583 Y105.529 E0.01975
G1 X95.400 Y104.936 E0.01946
G1 X95.295 Y104.082 E0.02700
G1 X95.295 Y75.936 E0.88249
G1 X95.350 Y75.322 E0.01931
G1 X95.500 Y74.703 E0.01999
G1 X95.817 Y73.975 E0.02489
G1 X96.304 Y73.267 E0.02694
G1 X96.752 Y72.817 E0.01990
G1 X97.271 Y72.434 E0.02023
G1 X98.094 Y72.037 E0.02866
G1 X98.699 Y71.872 E0.01964
G1 X99.346 Y71.799 E0.02042
G1 X103.372 Y71.796 E0.12624
G1 X104.254 Y71.861 E0.02772
G1 X104.912 Y71.969 E0.02089
G1 X105.938 Y72.231 E0.03320
G1 X106.542 Y72.440 E0.02005
G1 X107.115 Y72.700 E0.01975
G1 X107.902 Y73.341 E0.03182
G1 X108.427 Y74.143 E0.03004
G1 X108.692 Y75.071 E0.03026
G1 X108.705 Y95.735 E0.64790
M204 S1000
G1 X108.328 Y96.172 F6000.000
M204 S500
G1 F1800
G1 X141.672 Y96.172 E1.04547
G1 X141.672 Y75.219 E0.65697
G1 X141.821 Y74.528 E0.02215
G1 X142.270 Y73.721 E0.02895
G1 X142.903 Y73.133 E0.02711
G1 X143.644 Y72.775 E0.02581
G1 X144.249 Y72.572 E0.01999
G1 X145.172 Y72.336 E0.02988
G1 X146.087 Y72.205 E0.02899
G1 X146.646 Y72.173 E0.01754
G1 X150.618 Y72.174 E0.12455
G1 X151.200 Y72.237 E0.01837
G1 X151.777 Y72.392 E0.01873
G1 X152.551 Y72.766 E0.02694
G1 X152.956 Y73.064 E0.01577
G1 X153.321 Y73.411 E0.01578
G1 X153.811 Y74.081 E0.02604
G1 X154.114 Y74.739 E0.02272
G1 X154.270 Y75.335 E0.01931
G1 X154.327 Y75.920 E0.01844
G1 X154.327 Y104.092 E0.88329
G1 X154.279 Y104.613 E0.01641
G1 X154.154 Y105.145 E0.01715
G1 X153.760 Y106.008 E0.02972
G1 X153.458 Y106.430 E0.01628
G1 X153.092 Y106.819 E0.01675
G1 X152.415 Y107.314 E0.02630
G1 X151.649 Y107.652 E0.02626
G1 X151.123 Y107.777 E0.01693
G1 X150.561 Y107.828 E0.01769
G1 X99.442 Y107.828 E1.60282
G1 X98.889 Y107.779 E0.01742
G1 X98.353 Y107.653 E0.01725
G1 X97.450 Y107.235 E0.03120
G1 X97.042 Y106.935 E0.01588
G1 X96.677 Y106.587 E0.01580
G1 X96.172 Y105.890 E0.02699
G1 X95.930 Y105.381 E0.01768
G1 X95.765 Y104.842 E0.01766
G1 X95.672 Y104.070 E0.02437
G1 X95.672 Y75.944 E0.88187
G1 X95.724 Y75.371 E0.01805
G1 X95.863 Y74.808 E0.01817
G1 X96.138 Y74.172 E0.02174
G1 X96.584 Y73.520 E0.02475
G1 X97.009 Y73.094 E0.01888
G1 X97.480 Y72.748 E0.01831
G1 X98.210 Y72.396 E0.02542
G1 X98.783 Y72.240 E0.01863
G1 X99.376 Y72.175 E0.01871
G1 X103.365 Y72.173 E0.12507
G1 X104.202 Y72.235 E0.02629
G1 X104.826 Y72.337 E0.01985
G1 X105.837 Y72.595 E0.03270
G1 X106.394 Y72.787 E0.01848
G1 X106.936 Y73.033 E0.01867
G1 X107.638 Y73.613 E0.02855
G1 X108.094 Y74.323 E0.02645
G1 X108.315 Y75.097 E0.02526
G1 X108.328 Y96.112 E0.65890
M204 S1000
G1 X107.951 Y96.549 F6000.000
M204 S500
G1 F1800
G1 X142.049 Y96.549 E1.06912
G1 X142.049 Y75.238 E0.66820
G1 X142.165 Y74.683 E0.01777
G1 X142.552 Y73.973 E0.02534
G1 X143.095 Y73.459 E0.02344
G1 X143.776 Y73.128 E0.02375
G1 X144.349 Y72.936 E0.01896
G1 X145.236 Y72.708 E0.02870
G1 X146.132 Y72.579 E0.02840
G1 X146.661 Y72.550 E0.01660
G1 X150.588 Y72.550 E0.12312
G1 X151.145 Y72.610 E0.01757
G1 X151.661 Y72.751 E0.01677
G1 X152.342 Y73.081 E0.02374
G1 X152.705 Y73.346 E0.01409
G1 X153.049 Y73.672 E0.01486
G1 X153.478 Y74.257 E0.02272
G1 X153.754 Y74.852 E0.02059
G1 X153.896 Y75.388 E0.01737
G1 X153.950 Y75.930 E0.01708
G1 X153.950 Y104.083 E0.88271
G1 X153.904 Y104.564 E0.01516
G1 X153.791 Y105.040 E0.01534
G1 X153.443 Y105.803 E0.02629
G1 X153.159 Y106.199 E0.01530
G1 X152.830 Y106.547 E0.01501
G1 X152.242 Y106.978 E0.02285
G1 X151.544 Y107.290 E0.02397
G1 X151.050 Y107.407 E0.01593
G1 X150.553 Y107.451 E0.01563
G1 X99.451 Y107.451 E1.60229
G1 X98.936 Y107.404 E0.01619
G1 X98.459 Y107.291 E0.01539
G1 X97.658 Y106.919 E0.02770
G1 X97.293 Y106.653 E0.01416
G1 X96.949 Y106.326 E0.01487
G1 X96.505 Y105.713 E0.02374
G1 X96.277 Y105.232 E0.01669
G1 X96.131 Y104.749 E0.01581
G1 X96.049 Y104.059 E0.02178
G1 X96.049 Y75.952 E0.88127
G1 X96.094 Y75.445 E0.01597
G1 X96.215 Y74.943 E0.01620
G1 X96.477 Y74.339 E0.02063
G1 X96.884 Y73.750 E0.02247
G1 X97.264 Y73.372 E0.01680
G1 X97.687 Y73.063 E0.01642
G1 X98.356 Y72.744 E0.02324
G1 X98.866 Y72.608 E0.01655
G1 X99.387 Y72.552 E0.01642
G1 X103.345 Y72.550 E0.12410
G1 X104.166 Y72.610 E0.02581
G1 X104.741 Y72.704 E0.01829
G1 X105.722 Y72.954 E0.03173
G1 X106.247 Y73.134 E0.01738
G1 X106.758 Y73.366 E0.01762
G1 X107.337 Y73.841 E0.02349
G1 X107.761 Y74.501 E0.02459
G1 X107.945 Y75.172 E0.02180
G1 X107.951 Y96.489 E0.66838
M204 S1000
G1 X107.574 Y96.926 F6000.000
M204 S500
G1 F1800
G1 X142.426 Y96.926 E1.09276
G1 X142.426 Y75.259 E0.67937
G1 X142.528 Y74.792 E0.01498
G1 X142.866 Y74.184 E0.02180
G1 X143.328 Y73.756 E0.01975
G1 X143.926 Y73.475 E0.02072
G1 X144.450 Y73.299 E0.01732
G1 X145.320 Y73.076 E0.02817
G1 X146.162 Y72.955 E0.02668
G1 X146.666 Y72.927 E0.01585
G1 X150.578 Y72.928 E0.12265
G1 X151.063 Y72.978 E0.01527
G1 X151.515 Y73.099 E0.01467
G1 X152.134 Y73.396 E0.02155
G1 X152.473 Y73.643 E0.01313
G1 X152.776 Y73.933 E0.01315
G1 X153.161 Y74.463 E0.02055
G1 X153.404 Y74.993 E0.01830
G1 X153.527 Y75.467 E0.01535
G1 X153.574 Y75.956 E0.01541
G1 X153.573 Y104.058 E0.88109
G1 X153.534 Y104.490 E0.01363
G1 X153.429 Y104.935 E0.01433
G1 X153.125 Y105.599 E0.02289
G1 X152.876 Y105.950 E0.01349
G1 X152.568 Y106.275 E0.01403
G1 X152.037 Y106.661 E0.02060
G1 X151.439 Y106.927 E0.02051
G1 X151.002 Y107.032 E0.01411
G1 X150.545 Y107.074 E0.01439
G1 X99.459 Y107.074 E1.60176
G1 X99.010 Y107.034 E0.01412
G1 X98.564 Y106.929 E0.01436
G1 X97.865 Y106.604 E0.02417
G1 X97.526 Y106.356 E0.01318
G1 X97.223 Y106.066 E0.01314
G1 X96.822 Y105.508 E0.02155
G1 X96.625 Y105.086 E0.01460
G1 X96.497 Y104.658 E0.01401
G1 X96.426 Y104.049 E0.01923
G1 X96.426 Y75.961 E0.88067
G1 X96.468 Y75.494 E0.01471
G1 X96.577 Y75.048 E0.01438
G1 X96.799 Y74.537 E0.01747
G1 X97.164 Y74.003 E0.02028
G1 X97.498 Y73.668 E0.01486
G1 X97.895 Y73.378 E0.01539
G1 X98.472 Y73.104 E0.02002
G1 X98.922 Y72.981 E0.01462
G1 X99.417 Y72.928 E0.01562
G1 X103.338 Y72.927 E0.12294
G1 X104.114 Y72.984 E0.02439
G1 X104.657 Y73.072 E0.01724
G1 X105.622 Y73.318 E0.03123
G1 X106.099 Y73.481 E0.01581
G1 X106.578 Y73.699 E0.01650
G1 X107.071 Y74.110 E0.02014
G1 X107.426 Y74.677 E0.02096
G1 X107.568 Y75.197 E0.01690
G1 X107.574 Y96.866 E0.67942
M204 S1000
G1 X107.197 Y97.303 F6000.000
M204 S500
G1 F1800
G1 X142.803 Y97.303 E1.11641
G1 X142.803 Y75.277 E0.69060
G1 X142.873 Y74.945 E0.01064
G1 X143.149 Y74.435 E0.01819
G1 X143.518 Y74.084 E0.01598
G1 X144.056 Y73.828 E0.01869
G1 X144.550 Y73.663 E0.01634
G1 X145.383 Y73.448 E0.02698
G1 X146.207 Y73.330 E0.02608
G1 X146.682 Y73.304 E0.01491
G1 X150.568 Y73.305 E0.12185
G1 X151.007 Y73.351 E0.01385
G1 X151.399 Y73.458 E0.01273
G1 X151.927 Y73.711 E0.01838
G1 X152.221 Y73.924 E0.01139
G1 X152.503 Y74.194 E0.01221
G1 X152.827 Y74.638 E0.01726
G1 X153.044 Y75.106 E0.01618
G1 X153.153 Y75.520 E0.01340
G1 X153.197 Y75.966 E0.01406
G1 X153.196 Y104.049 E0.88052
G1 X153.160 Y104.442 E0.01237
G1 X153.067 Y104.829 E0.01248
G1 X152.808 Y105.395 E0.01954
G1 X152.577 Y105.720 E0.01249
G1 X152.307 Y106.002 E0.01223
G1 X151.864 Y106.326 E0.01722
G1 X151.332 Y106.565 E0.01829
G1 X150.952 Y106.658 E0.01226
G1 X150.536 Y106.697 E0.01312
G1 X99.467 Y106.697 E1.60121
G1 X99.058 Y106.660 E0.01288
G1 X98.671 Y106.567 E0.01247
G1 X98.073 Y106.289 E0.02070
G1 X97.759 Y106.059 E0.01218
G1 X97.497 Y105.807 E0.01141
G1 X97.156 Y105.332 E0.01832
G1 X96.973 Y104.940 E0.01359
G1 X96.864 Y104.568 E0.01215
G1 X96.803 Y104.038 E0.01672
G1 X96.803 Y75.969 E0.88009
G1 X96.838 Y75.567 E0.01265
G1 X96.930 Y75.183 E0.01240
G1 X97.137 Y74.704 E0.01635
G1 X97.463 Y74.233 E0.01797
G1 X97.752 Y73.946 E0.01276
G1 X98.101 Y73.695 E0.01348
G1 X98.616 Y73.452 E0.01784
G1 X99.003 Y73.350 E0.01257
G1 X99.427 Y73.305 E0.01335
G1 X103.317 Y73.303 E0.12198
G1 X104.078 Y73.359 E0.02392
G1 X104.572 Y73.439 E0.01569
G1 X105.508 Y73.677 E0.03028
G1 X105.951 Y73.828 E0.01470
G1 X106.400 Y74.032 E0.01544
G1 X106.768 Y74.336 E0.01499
G1 X107.090 Y74.851 E0.01904
G1 X107.197 Y75.266 E0.01344
G1 X107.197 Y97.243 E0.68907
M204 S1000
G1 X106.820 Y97.680 F6000.000
M204 S500
G1 F1800
G1 X143.180 Y97.680 E1.14006
G1 X143.180 Y75.299 E0.70174
G1 X143.234 Y75.056 E0.00781
G1 X143.464 Y74.644 E0.01479
G1 X143.707 Y74.411 E0.01057
G1 X144.188 Y74.182 E0.01668
G1 X144.651 Y74.026 E0.01534
G1 X145.467 Y73.815 E0.02643
G1 X146.251 Y73.704 E0.02483
G1 X146.697 Y73.680 E0.01398
G1 X150.558 Y73.682 E0.12108
G1 X150.926 Y73.720 E0.01158
G1 X151.254 Y73.807 E0.01066
G1 X151.721 Y74.027 E0.01618
G1 X151.989 Y74.222 E0.01039
G1 X152.228 Y74.453 E0.01042
G1 X152.510 Y74.843 E0.01509
G1 X152.694 Y75.247 E0.01391
G1 X152.784 Y75.598 E0.01139
G1 X152.820 Y75.974 E0.01184
G1 X152.820 Y104.025 E0.87951
G1 X152.790 Y104.367 E0.01078
G1 X152.704 Y104.722 E0.01145
G1 X152.490 Y105.191 E0.01616
G1 X152.278 Y105.490 E0.01148
G1 X152.048 Y105.727 E0.01036
G1 X151.659 Y106.008 E0.01506
G1 X151.226 Y106.203 E0.01489
G1 X150.877 Y106.288 E0.01127
G1 X150.528 Y106.320 E0.01099
G1 X99.475 Y106.320 E1.60071
G1 X99.133 Y106.290 E0.01078
G1 X98.778 Y106.204 E0.01143
G1 X98.279 Y105.972 E0.01727
G1 X98.011 Y105.778 E0.01037
G1 X97.772 Y105.548 E0.01041
G1 X97.474 Y105.129 E0.01611
G1 X97.322 Y104.796 E0.01148
G1 X97.231 Y104.480 E0.01033
G1 X97.180 Y104.028 E0.01425
G1 X97.180 Y75.977 E0.87953
G1 X97.208 Y75.641 E0.01057
G1 X97.293 Y75.286 E0.01144
G1 X97.459 Y74.901 E0.01313
G1 X97.742 Y74.488 E0.01570
G1 X98.007 Y74.225 E0.01169
G1 X98.306 Y74.012 E0.01153
G1 X98.729 Y73.812 E0.01466
G1 X99.085 Y73.718 E0.01155
G1 X99.454 Y73.681 E0.01164
G1 X103.310 Y73.681 E0.12090
G1 X104.026 Y73.733 E0.02251
G1 X104.487 Y73.807 E0.01463
G1 X105.408 Y74.041 E0.02978
G1 X105.804 Y74.175 E0.01313
G1 X106.222 Y74.365 E0.01439
G1 X106.468 Y74.567 E0.00999
G1 X106.735 Y74.980 E0.01543
G1 X106.820 Y75.293 E0.01015
G1 X106.820 Y97.620 E0.70007
M204 S1000
G1 X106.443 Y98.057 F6000.000
M204 S500
G1 F1800
G1 X143.557 Y98.057 E1.16370
G1 X143.557 Y75.323 E0.71282
G1 X143.593 Y75.173 E0.00483
G1 X143.777 Y74.855 E0.01151
